/* XPM */
static char *tn019[] = {
/* columns rows colors chars-per-pixel */
"87 87 256 2",
"   c #1E0C00",
".  c #190100",
"X  c #1D1602",
"o  c #1C2107",
"O  c #240300",
"+  c #230B00",
"@  c #2C0301",
"#  c #2B0B01",
"$  c #231300",
"%  c #2B1402",
"&  c #2B1A04",
"*  c #2D1D09",
"=  c #261904",
"-  c #330300",
";  c #340B01",
":  c #3B0200",
">  c #3B0A01",
",  c #3D0C09",
"<  c #331304",
"1  c #331B05",
"2  c #331D0A",
"3  c #3B1204",
"4  c #3D1509",
"5  c #3A1C0B",
"6  c #3B1906",
"7  c #3C1F10",
"8  c #2C220A",
"9  c #282705",
"0  c #2E2A12",
"q  c #34210D",
"w  c #3B230D",
"e  c #3C2A0D",
"r  c #352511",
"t  c #352C14",
"y  c #3A2412",
"u  c #3C2A14",
"i  c #3D2C19",
"p  c #38261A",
"a  c #3C3116",
"s  c #3D311B",
"d  c #323017",
"f  c #3F4521",
"g  c #430200",
"h  c #430A02",
"j  c #4B0100",
"k  c #4B0A03",
"l  c #4C0C09",
"z  c #470C08",
"x  c #431305",
"c  c #43140A",
"v  c #421B0C",
"b  c #4B1105",
"n  c #4B130A",
"m  c #4A1A0C",
"M  c #4B1A02",
"N  c #441D11",
"B  c #4B1C12",
"V  c #530201",
"C  c #530A04",
"Z  c #540B09",
"A  c #5A0101",
"S  c #5A0905",
"D  c #5B0B0B",
"F  c #590608",
"G  c #5D0E11",
"H  c #52120B",
"J  c #5B130E",
"K  c #53180A",
"L  c #541411",
"P  c #531B12",
"I  c #5A1412",
"U  c #5B1A12",
"Y  c #5A1E19",
"T  c #43210E",
"R  c #462308",
"E  c #432312",
"W  c #422C15",
"Q  c #422C1A",
"!  c #4B2314",
"~  c #4C2419",
"^  c #4A2915",
"/  c #4B2C1B",
"(  c #472618",
")  c #443015",
"_  c #44321C",
"`  c #4A331C",
"'  c #4B391E",
"]  c #45361A",
"[  c #552509",
"{  c #522315",
"}  c #54251A",
"|  c #532A1C",
" . c #5B231B",
".. c #5B2B1D",
"X. c #582615",
"o. c #55310D",
"O. c #52321E",
"+. c #533B1E",
"@. c #5B3A1E",
"#. c #583718",
"$. c #4B2F21",
"%. c #453421",
"&. c #453A23",
"*. c #4A3522",
"=. c #4C3924",
"-. c #4D3C29",
";. c #4A3728",
":. c #532D20",
">. c #5B2D22",
",. c #5E2720",
"<. c #523423",
"1. c #523C25",
"2. c #523D29",
"3. c #5A3324",
"4. c #5C3629",
"5. c #5A3B25",
"6. c #5A3D2B",
"7. c #563628",
"8. c #5B3E30",
"9. c #503E30",
"0. c #630101",
"q. c #630B0B",
"w. c #6B0002",
"e. c #6B040A",
"r. c #6A0D0D",
"t. c #660906",
"y. c #670E10",
"u. c #68170D",
"i. c #621312",
"p. c #671715",
"a. c #750101",
"s. c #7B0102",
"d. c #77090B",
"f. c #760D11",
"g. c #72130D",
"h. c #7B1814",
"j. c #62231B",
"k. c #662717",
"l. c #66351C",
"z. c #752619",
"x. c #642D22",
"c. c #6A2A22",
"v. c #623424",
"b. c #64342A",
"n. c #633B2B",
"m. c #6B342A",
"M. c #6A3B2D",
"N. c #673B24",
"B. c #643D30",
"V. c #683E32",
"C. c #7F2B20",
"Z. c #77392A",
"A. c #743D31",
"S. c #54401F",
"D. c #4D422B",
"F. c #4A4228",
"G. c #4F4430",
"H. c #544125",
"J. c #54412B",
"K. c #54492E",
"L. c #5A4326",
"P. c #5A432C",
"I. c #5C492D",
"U. c #554430",
"Y. c #554933",
"T. c #564D38",
"R. c #5A4531",
"E. c #5C4933",
"W. c #5D4C39",
"Q. c #5B513B",
"!. c #575038",
"~. c #624225",
"^. c #62442D",
"/. c #62492C",
"(. c #6A4626",
"). c #624432",
"_. c #644638",
"`. c #614B34",
"'. c #624C39",
"]. c #6B4332",
"[. c #6B4638",
"{. c #6A4D33",
"}. c #694D3A",
"|. c #69512F",
" X c #645135",
".X c #64513B",
"XX c #6A5335",
"oX c #6A533C",
"OX c #6B583E",
"+X c #64583D",
"@X c #714A2B",
"#X c #724A3B",
"$X c #754935",
"%X c #73532D",
"&X c #72533D",
"*X c #765739",
"=X c #7D603E",
"-X c #654F40",
";X c #655440",
":X c #6A5441",
">X c #6C5942",
",X c #6E5C49",
"<X c #655A42",
"1X c #744E41",
"2X c #715543",
"3X c #715B44",
"4X c #725D49",
"5X c #795645",
"6X c #6F604D",
"7X c #74614B",
"8X c #7A644E",
"9X c #706047",
"0X c #766351",
"qX c #850508",
"wX c #880B16",
"eX c #881416",
"rX c #93000B",
"tX c #950915",
"yX c #94161B",
"uX c #8E1D21",
"iX c #80281C",
"pX c #882722",
"aX c #843428",
"sX c #8C3633",
"dX c #9D3A32",
"fX c #A10F1C",
"gX c #AE111C",
"hX c #AA1527",
"jX c #A52627",
"kX c #A63935",
"lX c #BE3C3E",
"zX c #BA2F36",
"xX c #854B37",
"cX c #865639",
"vX c #974738",
"bX c #86643F",
"nX c #A84A3E",
"mX c #885C45",
"MX c #9B5144",
"NX c #8A6646",
"BX c #886C57",
"VX c #97674B",
"CX c #9A7453",
"ZX c #966650",
"AX c #AD4F45",
"SX c #AD5146",
"DX c #A66853",
"FX c #A57557",
"GX c #B77764",
"HX c #D53B45",
"JX c #D75054",
"KX c #C27467",
"LX c #B78869",
"PX c #B08B6C",
"IX c #C49178",
"UX c #C89A82",
/* pixels */
"Q 2.R.:X4X-XR.`.'.2X8.R.W.0X2X2X6.P.^.}.>Xq u OX>XY.H.I.P.P.oXP.6.P.>X7X>X}.J..X+X3X.X*.1._.J.oX3XH.L.I.8X}.E.H.E.>X4XP.H.E./.>X%.2 ;X0X;.-X;.Y.E.R..XJ.P.P.4XOXoXP.E. X>X>XI.",
"*.`.-X:X5X0X:X_.:X0X'.R.W.0X6X5X6.oX3X3X>X1 u OX>X XY.`.P.P.5X`.P._.8X7X}.W.W.7X7X8X4XJ.P..X_.>X8XOX>X}.3XE. XW.OX9X7X.X`.oXoX8X;.* U.6XW.0XW..XP.P.'.P.P.P.3XoX+XR..X>X8X8X X",
"*.}.-X_.>X0X:XU.W.:X6.6.9.2X'.R.6.^.).oX7Xe u E..XE.P.E.1.5.oX`.J.E.3XOXE.E.I.>X>X8X7XK.H. XY.OX&X`.`.`.`.5.L.`.P.L.).P.P.P.L.3X2.= 9.;XU.6XW.W.J.J.'.R.).I.oXE.`.H.E.oX7X8X X",
"Q R.R.P._.-XW.2.R.:XR.'.-X4XR.6.*.2.H.`.7Xe u I.Y.J.H.L.1.1.}.6.P.H.`.E.`..XH.L. X.XOXH.=.P.P. X3X`.^.`.oX`.).P.' 1.L.<.5.P.^.3X;.= U.W.%.U.%.U.J.2.`.2.P.P.oXI.E.1.L.P.E.3X/.",
"$.2.R.R.'.W.R.-X'.,X'.'.`.,XW.8.` }.>X2XoX= 8 W.E.J.=.H.=.J.:X6.L.L.I.I.`. XP.L.I. XOXL.' J.I. X).P.6.R.6.6.^ w E 1.).<.6.}.'.3Xs $ U.U._ F.;.Y.J.2.E.1.P.P.oX2.'.L.^.L./.*X`.",
"%.2.R.W._.R.R.:XW.:X8.-.;.`.8.R.1.oX>X:X+X% 1 J.Y.H._ =.*.P.>XH.H.K.XXI.H.I.I.OX X XOXI.' I.I.I.P.}.oX3X`.).1.<.w <.P.*.6.oX_.}.%.  U.9.=.J.;.2.2.2._.2.J.H.'.L.P.L././.XX*X X",
"Q J.R.U.R.R.R.R.W.2X`.R.2.'.W.'.2.).P.R.oXq q F.Y.H.%._ Q 2.>XL.-.L.XXI.' L.L. XI.L.XXL.] L.I.H.1.R.J.}.6.P.<.1.^ 1._.P.E.oXE.;X;.  J.9.-.J.%._ 1.2.}.P.P.1.`.L.L.5./.L.(.XX/.",
"Q R.R.-.U.`.R.2.8.,X-X`.U.'.W.'.1.'.'.E.`.= q U.Y.H.;.*.i 1.3X).L.I. XI.I.I.S.' L.S.`.S.' I.I.H..XW.=.Y.H.`.+.W ` ` H.P.E.R.=.Y.%.  W.U.J.J.;.-.*.1.+XE.E.2.E.1.H.5.L.+.5.|./.",
"%.2.Y.J.U..XJ.U.U.W.W.Y.2.;XJ.J.%.8.R.`.2.* * Y.W.&.;.R.*.R.4X2.H.S.I.L.L.L.' I.' I.|.H.S.L.L.' !.Q.H.K.] I.L.e ) L.' H.=.K.D.D.%.$ U.W.p ;.J.J.6.H.oX2.P.1.`.1.I.' @.L.~.I.|.",
"%.=.U.%.-.J.;.U.;.2.R.Y.U.>X-.;.Q =.U.R.2.8 * D.%._ -.Y.;.2.:XR.L.=.I.L.H.L.' S./. X XS.' S.I.H.' F.s H.S.OX XS.e L.) ' ] F.K.+Xi $ -.G.u %.;.2.-.=._.2.P.1.`.H.I.#.5./.{./.|.",
"u u i i Q s q i s i i i r -.u u 2 r u %.s $ X p = =   * Q Q 1.Q ' ) ] ] ] ] e W H.H.] e 8 w ) ) a s a a e  XXXS.NXXX8 9 e s t * *   r p $ * & i i y *.` ` u ' ` ) w E ' +.#.^ ",
";.%.-.U.W.J.u _ J.J.-.;.u D.Q %.$.i Q -.2.i r s %.s $ r R.+X:X'.OX`..X XoX3X XXX>XOX XL.1.L.E..X+X8 9 L.L.S.o.%X1 L.(.S.e e D.+X%.u ;.p r q $ %.`.E.oX>X`.I.oX7XOX XOX*X3XXXXX",
"W.U.W.;X,XW.%.F.U..X,X4XW.;X-.U.W.2.8.-XQ.G.D.G.0 d $ r 9.9.-X,X XH.R.I.`..XY.`. X XW.I.I.P.`.oXH.' L.@.*XPX=Xo.NXCX*X@.H.I.`.1.W.J.U.%.i y & 2.'.R.'.>XE.1._.3X/.I.E.oXI.I./.",
"W.J.U.Y..XY.Q ;.-.Y..X:XU.W.2.Y.9.*.;.W.Y.9.;.9.i i = i Q.-X-X:XE.1.P.H.P.E.2.L.Y.I.E.`.`.E.`.OXOX1 5.ZXPXCX#.o.cXFXFX$X~.@.XXoXU.;.G.%.u r $ -.`.E.`.>XP.H.P.oX1.=.H.I.1.1.E.",
"W.U.U.U.W.W.%.%.Y.U.Y.Y.-.W.J.W.9.*.9.T.9.;.-.-.-.i $ p R.W.`.U.J.*.1.=.2.H.*.2.J.H.2.P.J.2.P.'.`.^ NXPXLXxXR x M cXLXLXCX@.5.<.U.%.U.J.%.i 8 2.6.P.P..X` 1.7.E.1.-.J.W.L.H.E.",
"K.J.R.U..XW.i u U.J.J.Y.J.W.*.-.R.%.U.-X-.&.U.G.G.%.r i ;.;.R.R.R.=.P.2.J.E.J.R._.J.J.R.P.1.R.oX~.(.UXIXFXo.h [ R (.FXLXLXcX$X(.8.s R.R.&.i 2 ;.2.J.P.'.*.L.2.E.L.H.Y.}.E.P.H.",
"P.J.H.E.P.E.W F.2.H.-.I.P.W.' `.E.` 6.Y.U.U.-.U.;.;.q * ;.J.2.W.2._.8.7.J.R.U.U..X2.<.R.L.6.).{.(.bXKXDXcX[ M R 9 9 ZXDXKXDXN.(.`.( _.'.8.( # 1.8.6.6.R.7._.6..XE.1.L.E.P.H.P.",
"I.J.H.E.I.E.W H.I.P.H.P.J. X=.E._.*.U.R.6.-.*.J.R.2.W u 2.R.J._.7 $.2.9.`.W.U.U.+XJ.2.E.2.5.).#X$XVXFXcXl.[ [ #.f 9 ].MXKXDX@X5.P.*._.P.*.*.5 $.R.6.R.:XR.`.-.R.H.=.1.E.W.P.E.",
"H.1.=.L.H.L.W H.1.1.1.I.J.I.W 1.Y.*.R.W.2.6.2.E.8.;.7 u =.2.*.J.8.'.R.R.R.-.%.2.Y.2.Y.>X`.L.P.(.cXDXNX(.[ [ l.aX/.e o.cXGXDX$Xl.).<._.U.6.*.E ;.7.*.2.W.2.6.Q 1.J.` =.E.`.I.E.",
"J.L.H.E.P.`.] P.L.Y.I.`.I..X' H.H.Q 6.U.-.*.*.U.R.*.u Q J.R.U._.6.8.2.2.U.-.-.U.H.*.J.E.H.*.1.5.cXFXbX(.[ @XaXaXZ.l.| cXFXVXmX(.P.u *.P.2.Q 2 *.6.*.;.8.2.J.*._.J.` *.L.J.H.H.",
"=.*.*.H.=.H.u 1.P.P.F.1.=.E.' Y.;X6.'.`.2.*.Q =.-.u y i ;.2.2.-.$.;.9.R.;XW.J.D.Y.-.F.-._ &.Y.XXbXDX%X#.[ xXiXiXz.Z.l.cXVXVXNXL.1.u %.J.2.u 2 %.%._ _ 2._ R.*.'.'.-.1.J.H.J.P.",
"1.H.H.I.J.P.Q H.1.P.H.P.H. X1.L.W.;.R.U.;.Q i *.2.Q u Q Q *.-.Q %.;.;.$.-.%.u r &._ ' F.' ' H.L.bXcX#.R K eXiXiXz.aXu.l.xXVX*X` u s *.;.%.u y r Q %.;.;.Q 8.=.U.1.W W ' ` ] =.",
"W W _ 1._ ] & W e W u W e *.q ) *.y $.;.%.Q u Q Q 7 5 2 & u u + + 7 p < * u u i u q _ -.' _ ] W cX%Xo.o.z.eXiXnXyXiXu.l.l.cX|.' y Q %.%.i 7 y 7 5 u 7 %   y & 5 r 1 e W e q e ",
"I.E. X>X`..X` I.3XOXH.` _ `._.4X;X6.`.'.W.R.8.`.,X;X;XR.R.:X:X;.$ *.W.9.6.R.Y.Y.>X`.Y.E.I.W.oXXX(.l.(.(.vXpXdXAXjXjXz.N.k.%X/.|.E.R.R.:X`.%.*.W.;X:XR.Q 2 8.2.2.E.J. XoX XE.`.",
"=.2.P.E.`.R.8.H.R.4X2.y P.`.J.4XW.'.R.:X2.2.-.'.R.R.U.R.R.'.:X8.% s p i 7.R.R.-.1.2.1.P.1.`  X3X#.l.|.NXvXnXkXlXJXJXaX@.XXL.X.*X6.1.7._.6.R.8.2.}.R.-XQ < R.*.2.H.E.P.W._ H.P.",
"=.E.P.E.>X`.;.2.R.7XJ.u Y._.P.,X'.*.q U.2.=.Q R.U.2.;.6.R.'.>XU.. ;.R.2.i 7 $.7.`.6./ 7.^.P._.].K l.%XVXMXAXkXjXgXzXvX*X*X@.R ].6.! < $.<.8.6.8.7.2.}.7.7 J.*.6.H.2.H.'.] ` ` ",
">X2.2.2.*.P.'.R._.4XP.Q E.E.2.:X:X;.q *.2.2.;.J.R.2.i 2.R.}.:XW.  -.9.2.Q E *.:.).n.| 6.].^.^.v.X.l.xXxXvXnXdXyXrXyXsXxX$X^ m M.[.} N B.4.3./ 7.8._.5X8.% y < u J.=.1.oXH.1.*.",
"*.E.R.P.>XE.` *.R.>XH._ R.P.1.E.`.}.R.-.%.6.J.J.:X2.u =.R.R.-XU.% ;.;.7.).8.4.! | 3.>.n.v.| v.v.{ K z.u.h.r.g.0.yXqXiXaXv.! ! >., h c 4.B B ~ n.4._.}.*.O 2 5 y P.2.L.>XI.W.L.",
"2.Q ;X6X8.J.R.u U.'.2.Q 6.2.;.U.U.'.;X2.;.=.R.2.;X2.i *.6.6.`.2.  $.-.7.6.:.:.4 m {  .j.X.m { { { K pXeXeXt.S j A 0.h.pXj.! B 3 - h z L - > P b.>.[.[.$.+ Q / w P.E.E.}.-.E.L.",
"R.`.R.8.2.-.-.R.E.'.R.;.R.R.6.W.R.*.6.U._.*.2.R.`.2.Q *.2.-.R.2.+ %.7 < 4 4 ~ P n m z n H h k : > : f.eXd.V j g : V f.f.C z 4 z Z I P I : z B c } V.B.<.5 <.$.1 1.E.I.E.] E.P.",
"-.Q `.4X-.-.R.y R.E.2.*.U.6.2.E.-.Q 2.J.W._ 1.P.8.2.;.2.;.*.R.*.2 i + . ; B >.P h l : k k g k - h j e.d.V V V S j V 0.V : - , l g : g L g n z > > 4 c ~ N <.<./ _ 1.H.E.` J.P.",
"2.Q 2.R.*.<.7.Q *.$.E u $.%.%.2.Q %.R.;.;.r %.;.%.;._ _ u u -.u & $.( y ~ ~ B - k l g j g g k g - j w.e.g V A V A V V j h - - g k j g Z g g g z h > - B < 4 5 w _ ' 1.E._ ` _ ",
"%.Q y E / / ~ N ! N ( < 7 *.Q Q p s s s %.u q r r & 2 u r Q Q Q O 7 y # < v c  .l k Z F j : : g g j y.V 0.A 0.w.0.A V j g - @ : g g j j j j j g g : - : - > < O % 2 y ` 2 y r ",
"'.'.-X:X).3./ / :.5X1X( 7.2X_.R.s &.&.-.U.-.%.;.4XW.R.R.6.<.*.$.:.:.( 4 N B ; n l k Z G Z j g g g j y.A h.f.s.s.a.w.A A j g : h g j j j j j F j g j n Y 4.4.<.( *.i y 6.8.:X'.",
";X.X;X-X8.N ; @ 4 v ; ; R.7.5 '.%.-.J.U.W.W.8.R.:X<.$.R.).8.[.2X4.7.:.7 N 4 @ : l j j V F j g j j V e.w.eXyXqXqXqXs.w.0.A j g z j j F F j F G V j k z n >.:.B N *.y q R._.0X}.",
",XW.U.`._./ 6 @ ~ ).).$.7.6.2.0X%.J.R.R.E.E.8.R.5X6.:.4.7.~ N 4 :.<.:.( / N > x.L C j g j g j j j V A A d.eXs.qXyXd.a.0.A j g j j j F V j F Z j Z Z z h B B N 5 8.;._ W.6.`._.",
"4XW.U.;X2X}.7.$._.:.:.Q / R.W.R.Q 6.R.8.6.2.6._.~ 7 N ~ 3.B.b.~ / *.7.<./ 4 O z I Z V F F V j j g j j j F y.0.e.h.r.V F j : : : g V V j j F G V L C z z B } :.:.H._ q Q 2 Q *.",
"<XQ.W.'.-XR.8.7.}.# # / *.U.W.W.u 8.W.8.6.2.7.V.~ N > - , >.b.:.@ 4 Q / 6.>.c P k j V F D F j g : g z g j F j A p.A j g g : : : g j V C j C G I C z L ,.:.>.4.:.=.i q H.2.'.P.",
";XQ.W.W.'.'.8.*.$.R.>X/ % $.U.U.Q U.R.8.8.2.<.:.3.N ; - ; Y b.4.).}.}.<.<.! - : k F V F F V j j j j j j j D j A y.A j j j j j j j g j Z j j L I Y z x.V.>.:.).*.y * q E.E.}.6.",
"U.J.F.U.:X4X`./ }.R.7.*.R.`.-.R.Q J.R.2.6.2.( 5 7./ / 4.b.b.>.~ <.).E.5 ; ; ;  .Y G F V V V j F j l g g g G j G G F j j F j j j l : h Z z : z P L ; :.V.! Q 8.Q *.s Q  XJ._.B.",
"G.G.D.Y.'.`.2.Q R.U.`.i *.R.Y.U.-.-.W.%.W.;.R.*.2.7.6.4.6.4.3.7.7.8.( Q < ~ > m.I F F G V j j V j z g g g z L L l l g g g j j j h h h : z B { B c ~ $.E =.R.Q &.F.a u =.6.5.7.",
"D.D.J.J.U.U.2.=.R.7.8.Q 2.2.R.W.d &.<XG.U.s -.6.W.2.<.*./ 7 7 $.*.6.2.7.*.:.4 >.z j F D F V C k j g : : - - , , , , : : g g g g g c L B c c ~ V.3.6.7.q i -.%.-.' u u ' ` e 1 ",
";.-.-.%.%.%.;.%.U.Q *.Q *.$.*.2.s &.G.D.G.&._ %.2.%.*.U.7.u y <.$./ *.Q *.( N } l l Z F j j j g h : - ; , # # # @ O @ @ - > h , : : B b.n.~ ~ <.$.*.Q $ & i i &._ a W J.I.7.^ ",
"q u i r u u u 5 i 7 i r y Q 7 i r r * 8 r *   & 2 & * u r = 2 i 5 % p < 5 < ; x P I Z j : g j g h : - ; ; , # O # # # ; > g g g h - - c B m N ( < 5 2   $ r 8 8 =   $ q W W E ",
";.J.}.;X2X4X;X2.'.}.}.6.8.2X}.'.-.W.W.W.Y.Q u W.,X,XW.Y.Y.W..X-XU.6.`.;X8.6.N B n l l j g l n k S V j j g , , @ - - : g j V V V g z n c 4 c B ( [.).-XR.R.;XJ.&.OX X XOX3X3X&X",
"*.R.-X:X,X:XW.%.:X-X8.$.Q `.8.6.2.W.'.:X0X2.Q Y.U.W.R.-.-.U.;.r `.U._.R.Q Q < , n z H L Z L P l t.0.A j j : - - - : , g j A 0.t.g n { ,.>.b.~ c 4.<.).6.6._.2.Q W.K.K.W.oX X`.",
"-._.-X}.`.}.8.Q R.2.$.Q Q _.<.$.7.7.8._.BX<.y 2.8.U.`.W..XW.J.%.-X*.R.*.y 7 ( } ,.P U Y P L P H 0.0.A j : : @ @ @ , > g j V A t.J j : > L } } ~ N ! 8.6.<.R.6.` F.=.H.I.oXoXXX",
"Q 2.R.2.;.R.R.8.7 2 < <.8.:X7.2.2.R.:XW.BXE p `.'.8.2.=.-.7.8.-X7.5 W.Q 7.7 4.3.B.} P P I P  .j.V A V V j : , ; ; , > g g V S S k k n P P B :.].4 ~ }._.*.6.6.W L.H.=.H.I.`.`.",
"u R.P.*.6._.R.*.7.6._.p 2.W.9.%.J.I.3XOX>Xi Q -.2._.P.6.$.7.B N ; :.-.%.<.4.>.! 2.1 [.M.p.J P C A 0.A V j j g : : : g j V S S S g x 4.w ` ^ ~ ^.| 5._ r =.H.<.O.P.` P.^.P.`.`.",
"u H.R.2.P.`.P.<._.'.-X*.2.W.%.u =.1.}.+X+X_ _ H.'._.6.}.7.B , , / 8.D.;.6.V.M.n.7X] oX(.j.J K : A 0.0.A V V j j g j j k C V S S H m ^.E 1.<.| ^.O.<.u 8 u =.5.3.^ W 5.P.^.{.oX",
"_ J.E.1.).`.P.<.6.).R.;.U.6XW.U.-.=.I.W.+X_ _ D.R.R.2._.7.:.N ~ 3.8.-.&.1.<.3.7.F.a E.4.b g h k A A A V V j j g g g j j V V V V j - O.^ +.^.n.$Xv.| ) e e 1.n.3.O.` ^.^.5.P.L.",
"W H.1.1.6.R.6.7.*.R.6.;.;.<X-.;.-.1.H.J.J._ i =.-.R.2.2.$.-X_.8.4.R.D.F.H.` ^ ` 8 9 H.4.M h m k V A A V V j g g j g j j j V V V U h v./ <.5.m.b...! ` ' ` 6.].v.< < ` 5.P.`./.",
"=.J.1.1.^.`.R.E.R.:XW.2.-.;X;.%.E.P.H.J.J._ ) -.-.R.=.;.Q }.'.R.R.U.G.G.Y.F.` 1.' s ] 5.v.v...x V A A V V j j g j j j j V V A V k.n (.7.6.(.M.Z.X.n ^ ` ] 6.].v.L.` P.`.).`.1.",
"` H.1.1.L.1.6.H.7.2.6.$.;.R.;.%.=.1.` 1._ s r ' %.Q r i p %.i ;.*._ d d s a W _ &.' T ' { >.| m V V V V V j g j j j j j j V V V l : | ^ 3.n.c.c. .P R E T E ..! ^ 6 ` 7.L.^.5.",
"W ] ` Q *.W T W _ _ *.2 i Q r r q _ ) *.i e = r t r & r r %.i %.r d 0 9 t t e y e ` 6 ^ c [ ! M g V j j j j j j j j j j j V V V k 3 <.R | ! : h j. .! E W E m R ^ 2 ^ ` W W 6 ",
"I.`./.oXoXE.1.1.2.*.R.u U.Y.Y.U.2. X X3XW.J.) F.%.-.d q = G.G.;.;.Y.G.G.Y.R.=./ ` 3.6 ..X.3.X.3 j j V V V j j V V V V V V S S S g x 5.E 4.} : j C X.^ ^ L.1.` 3.6.1./.oX}.OX X",
"P.P.L.`. X3XH.H.E.E.+X'.J.Y.Y.1.2.H.H.oXR.H.=.W.Y.,XF.X G.Q.T.T..XR.R.;.Y.*.1.L.! m : K v.X.m h k j j k V V S S V A V V V V S k U | T <.mXn.- j J m.R w Y.J.1.w / ` 1.`.1.P.P.",
"^.^.5.`.`.>X1.H.P.P. XY.J.J.U.*.2.H.2.+XJ.-.` Y.J.;XD.= G.T.T.T.U.6.6.*.Y.=.*.7. .x.c.Z.$Xm.m k C V V S V V S A S S V V V V V V m R < T n.{ : j U j.4 w K.J.1.L._ ` -.`.1.`.P.",
"^.^.P./.`.>X=.K.J.I.J.H.2.R.J.*.J.J.H.W.J.2.*.R.-.;XT.r T.T.T.T.J.7.7.$.Y.;.1.4.H p.aXc.c.j.h k Z V V S V V A V V V V V V V S k K c 6 R | n g V J k < e H.D.*.>X2.2.2..X1.R.H.",
"/.`.P.{.`.OXH.I.J.Y.J.=.P.E.J.1.H.H.F. X2.J.=.E.U.;XT.p G.T.T.Y.U.6.<.Q L.=.1.n.J p.sXp.X.x.x m C C V S V V A V V V A S S V k k n n / 4. .h j j V g v +.K.K.a oX2.2.1.}.1.P.1.",
"^./.^./.I.XXH.Y.K.I.-._ P.E.2.1.H.J.F.E.2.J.1._.R.W.2.2 ;.Y.T.U.U.8.6./ Y.&.` / Z g.sXz.v.M.x K k j V V V A A V V A A V C k k k h b m.A.U g V A V j B P.K.!.] '.Q ` =.'.2.R.R.",
"P.5.5.`.I.E.' Y.H.E.=.) H.E.1.2.D.J.=.I.1.J.1.P._.R.-.* ;.U.Q.T.U.R.).6.W.&.u 6 k A u.D X.n.[ U j j j V A A A V A V V j k C H H j H k.c.Z j A r.0.S P ].H.W.H.+X*.;.=.'.J.`.R.",
"L.@.5.L.L.I.] W.K. XF._ J.P.1.H.H.D.-.E.1.J.<.2._.R.2.2 i -.W.U.G.U.E.<.!.F.s w S q.A k P ..| ..j j V V V A A V 0.A V V C H H C C S J U S V e.wXw.r.H $X1.P.J.:XR.2.2.'.2.R.2.",
"5.5.+.I.J.I.'  XK.+XJ._ J.E.1.E.P.Y.H.Y.2.P.*.6.R.6.-.% * p -.&.G.U.6.` T.G.J.<.P I V H X.! m h k j V S V V A V V j k C U U H k k C h j V A w.d.d.r.k &X1.=.H.'.J.2.*.P.;.J.J.",
"I.+.5.I. XL.1.H.;.J.D.i U.;.;.9.U.W.-X-.J.W.2.P.J.R.;.q * Q ;.-.W.R.9.9.8.J.7.$.< 4 - ; B c : l g j j j j k j g k : g k b k j k H c x : j A a.yXd.S [ ~.I.K.R.*._.D.*.H.2.] 1.",
") ) ] +.=.W i Q i i r + p p p %.p %.%.u u _ r i i Q r * q _ *.i i p %.$.;.$.( p O % # ; c z : l j j j j j j g : g - - h h j g k c B } z j V w.eXa.A K ` a s %.;._ ' s H.F._ ' ",
"+.H.I.oX`.H.J.E.,X,X9.%.;.W.-X0X;.;.2.-.2.-.Q U.W.J.Q u %..X>XW.i s -.W._.8.7.7.2 < O ; } Y L k l S S V V V j g g : h l l k k l z ~ m.L j V 0.qXs.g.K R r t ;.oXH.J.J.+XoXI.E.",
"L.I. XXXoX`.E..X;X,X%.p p 9.G.6XU.2.W.W.W.D.;.'.;XW.;.Q 2.<X7X,Xi $.U.;X-X8.8._.( ; O : Y x.I C D F F 0.A A V j : g b n k j S p.L } x.l k V 0.qXqXqXA x ` &.Y.0XJ.E.K.}.W.H.W.",
"' 1.I.E.W.Y.P.E.,X0XJ.%.p 9.9.0X-.;.R.R.U.;.Q Y.-.J.D.J.Y.;X;XE.s ;.U.'.R.2.6._.4 - - : g j l D A A A 0.0.A V j j k k k k g k J m.Y J V V V A eXrXqXV g ` G.Y.;X-.I.J.K.H.] H.",
"H.L.^.`.`. X`._.;X,XU.%.%.9.9.;X;.=.Y.R.R.-._ W.2.J.J.U.W.;X:X;X;.J..XW.8.6.8.[.! > - g j l D V A A A 0.0.A V j i.k : k h k j k 1XY j j C k V h.fXrX0.V <.T.U.-.-.Y.E. XK.*.H.",
"1.L.E./.E.I.W.`.W.;XG.i ;.;.9.U.i %.R.U.D.2.%.W.U.-.;.*.-.W..X;Xs J.Y.2.%.*.n.V.>., : k I p.i.j A A A e.e.0.V j J K P P l g k H m.I S V j k j f.gXrXa.r.<.!.W.%._ P.E..XI.=.H.",
"*.L.E.W.L.J._..XW.-X2.p T.9.G.2.u %.Y.R.U.J.-..XU.J.-.J.W.'.'.Y.i J.R.;.Q 2.8.n.Y g j Z C D I j A V A 0.q.A j j g P N.3.x @ x j.B n D V g h g r.tXqXs.r.| K.W.%._ E.W. XY.1.W.",
"H.6.E.'.E.2.H.E.W.W.D.i W.J.J.T.;.U.-.-.Y.U.*.-.W.2.-.D.R.W.W.W.Q W.J.Y.H.u 6.].m g j V V V C C J Z V V V i.g g P K n.4.v 3 6 x V.P j q.- n > S tXhXyXf.E +X2.&.] ' P.Y.I.J.K.",
"2.H.E.'.R.2.6.E.;X:XU.Q W.U.J.W._ J.;.Q =.*._ U.U.D.-.J.J.U.W..X_ R.J.Y.U.1.).#Xh j F S j j j g J l C U V H : h { 3 O.| T O.v v :., V i.k ! 3 : w.wXwXy.B .XJ.U.2.J.W. XJ.J.P.",
"2.L.E._.R.1.2.W.Y.R.;.i U.-.U.W.2..XW.-.J.;.;.W.R.U.J.U.D.U.R.'._ L.-.D.D.-.6.M.l k V V V V J l M m m U h b - : 3.6 O.^ / 6.E E <.> l j g m T : j e.e.D ! P.1.Y.J.K.E. XJ.F.J.",
"Q _ *.1.` u Q =.=.&._ q -.&.-.J.Q Y.Y.J.J.Q u -.;.%.Q Q Q Q Q ;.] =.=.&.F.` / | l g g j j j l n m ^ | { h P > ; m 6 w e ` L.^.^._ 5 L J c | 5 O : j V l ! <.%.J.] i _ ] W W ) ",
"2.2.8.R.2.%.;.6.Y.J.D._ J.-.H.-.u J.U.U.U.*.u %.-.;.%.%.&.-.=.;.W ` *.] ] i 6 v l g V S V g H } O.W O.4.....v ! E ^ # 1 ` <.).5.-.` { x.z n.u % ; - : h | 6.=.Y.=.W _ *.1.-.-.",
"2X:X:X>X:X`.`.'.'.R.W.H.W.K.W.Y.%.Y.W.R..XE.J.W.W.E.U.U.'.<X:X'.}.oX>X+X<X+XL.M. .S D r.V C m.mXP.e E }.].v.m V.6.5.% 6 5.5.^./ W.H./ x., [.;.s = + 6 3 4._.E.oXOXH.H.W.+X>XOX",
",X-X`.-X'.R.R.U.Y.2.Y.F.I.U.+X.X_ U.U.J.E.U.2.'.J.R.U.J.R.W.'.E.P.7.K.K.Q.+X+.3. .Z V V k U A.1XE.i W {.].n.! (.| E R T 5.#Xv.`.&.] R.#Xb.#X;.0 o X i w n.[.'.;X>XH.' J.E..X+X",
"4X:X_.'.-XE.U.6.'.H.J.*.F.H.+X`.Q U.R.U.Y.2.*.Y.J.U.R.-.2.H.R.J.`.H.I.K.9X9X7.3.l.U C V p.A.M.5 P.P.`.).L.{.3.3.O.^ oXE ^ 6.< 5.D.s R.V.4.B.-.d o o s r 6.n.P.E.>XJ.&.H.H.R..X",
".XoX+X}.+XY.K.I.Y.H.1.-.' J.E.I._ P.}.E.R.=.<.E..X}.R.=.1.I.E.7.5.).oX_.Y.I.` 6.3.].h > X.#XoX4XE.<.R._./ | ^.7.<.}.L.^ O.P.P.).H.=.2.^.[.oXP.q e q q W 7.`./.E.W.J.*.P.E.P..X",
"Y.+X.X`.oX`.I.W.OXW.E.J.J.J.J.-.W 1.L.J.L.` ` 1.E. X`.1.1.6.P.1.`.`.2XXX+X X1.P.6.$Xv T 4.2X5XNX*.Q _.2X_.`.:X_.^ P.L.W ' L.O.` P.2.L.P.}.OXE._ W _ ` J.}.3X7X7XW.L.*.J.E.J.'.",
"H.E.I.Y.`.E.J.J.=.] ' H.H.I..XW.` L.I.R.E.2.1.2.I.oXoXE.H.J.I.`.).).oXY.E.E.=.L.P.].v ^ <.^.P. X}.6.E.'.2.1.P.*.1.`.H.W / 1.L.H.2.=.' 1.L.}.`.` u W ` 1.L.E.E.`.E.R.*.P.Y.P..X",
"E. XE.W..X XL.J.J.=.-.H.=.F.J.H._ 2.P.H.L.1.` =.1.E.`.L.1.5.1.2.6.L.P.H.K.K.' 1.&X&X| L.`./._.OX'.U.6.U.1.1.H.=.L.E.1.e E ` 1.H.5.` ` -.L.W.`.1.1.1.L.P.P.E.E.`.E.P.*.R._.R.;X",
"1.J.H.H.Y.J.=.=..XE.E.I.F.H.Y.I.` E. XI.I.H.-.H.L.E.E.I.P.L.J.P.P.P.E.H.K.Y.-.I.L.P.E 5.^.P.I..XU.J.R.;X.XW.P.-.P.Y.E.H.' J.I.H.J.1.L.I.Y.}..XI.` 1.1.1.1.H.E. XR.J.*.R.E.H.'.",
"J.W.Y.Y. X`.I.Y.H.' =.F.H.J.}.+X` `.oXE.R.H.H.L.R.R.I.P.I.R.R.H.1.1.H.=.F.D.' J.P.).` `.P.).E.Y.Y.R.U.U.R.H.;.' R.I.E.J.1.K. XJ.=.' -.H.H.P.I.J.I.Y.R.L.J.L.`.}.H.2.*.J.J.*.6.",
"e W W u ) i r ) ' W ] _ u ) =.*.r 1.=.W _ _ W W _ ) ) _ _ ) _ W a W ] a a ] t *.=.7.W 5.^ W ] u %.Q u i _ &._ F.' a ] ) q ) F.' ] W _ _ W W ` _ ' ] _ W u u W W *.*._ 2.2.` *."
};
