/* XPM */
static char *tn054[] = {
/* columns rows colors chars-per-pixel */
"64 64 256 2",
"   c #030500",
".  c #050A00",
"X  c #0C0300",
"o  c #0C0C00",
"O  c #0D1100",
"+  c #081B00",
"@  c #130C00",
"#  c #1B0100",
"$  c #1C0C00",
"%  c #130300",
"&  c #121401",
"*  c #151509",
"=  c #151A01",
"-  c #1A1401",
";  c #1A1B04",
":  c #1B1B0A",
">  c #18160A",
",  c #1B1B11",
"<  c #092200",
"1  c #1B2206",
"2  c #1C230A",
"3  c #1C290A",
"4  c #1F2E11",
"5  c #230300",
"6  c #240C00",
"7  c #2C0300",
"8  c #2B0B00",
"9  c #241403",
"0  c #221B05",
"q  c #221D09",
"w  c #2C1201",
"e  c #2D1B0A",
"r  c #2B1907",
"t  c #2F1F10",
"y  c #340300",
"u  c #330B01",
"i  c #3B0200",
"p  c #3A0A02",
"a  c #321103",
"s  c #311408",
"d  c #321A0B",
"f  c #3B140A",
"g  c #3B1A0D",
"h  c #301907",
"j  c #391B10",
"k  c #371F13",
"l  c #22230C",
"z  c #232A0D",
"x  c #2A230C",
"c  c #292609",
"v  c #252510",
"b  c #252A12",
"n  c #2B2512",
"m  c #2A2C14",
"M  c #2B2C18",
"N  c #252719",
"B  c #2A3116",
"V  c #2D331A",
"C  c #2C381B",
"Z  c #263516",
"A  c #35220D",
"S  c #322312",
"D  c #322B13",
"F  c #322E19",
"G  c #3B2413",
"H  c #3B2B1A",
"J  c #3C2716",
"K  c #33341C",
"L  c #32391D",
"P  c #3B331B",
"I  c #3A3A1D",
"U  c #363016",
"Y  c #2D2E21",
"T  c #2F3123",
"R  c #333420",
"E  c #353A21",
"W  c #3A3522",
"Q  c #3A3B24",
"!  c #3C3C29",
"~  c #333529",
"^  c #3D3F32",
"/  c #2E401E",
"(  c #364224",
")  c #3B4226",
"_  c #3C432A",
"`  c #3E4A2A",
"'  c #374728",
"]  c #3C4A31",
"[  c #3E4032",
"{  c #3A5631",
"}  c #420302",
"|  c #410B05",
" . c #490202",
".. c #450907",
"X. c #43150C",
"o. c #4F1510",
"O. c #432819",
"+. c #43331C",
"@. c #47361D",
"#. c #51391F",
"$. c #482E21",
"%. c #433321",
"&. c #433B24",
"*. c #423C29",
"=. c #4A3324",
"-. c #4C3528",
";. c #4B3D2B",
":. c #4B3926",
">. c #523B2B",
",. c #543628",
"<. c #543E30",
"1. c #5B3E30",
"2. c #62352A",
"3. c #693D30",
"4. c #42442B",
"5. c #434A2D",
"6. c #494226",
"7. c #4B432B",
"8. c #4A4A2D",
"9. c #434226",
"0. c #434530",
"q. c #444A31",
"w. c #4C4431",
"e. c #4A4C34",
"r. c #4B4E38",
"t. c #4F453B",
"y. c #45502F",
"u. c #455134",
"i. c #4B5235",
"p. c #4D5239",
"a. c #4D5A3B",
"s. c #435439",
"d. c #51412C",
"f. c #5B432B",
"g. c #544332",
"h. c #514B34",
"j. c #534D3A",
"k. c #5B4234",
"l. c #5C4B34",
"z. c #5B4C39",
"x. c #554538",
"c. c #525236",
"v. c #52543B",
"b. c #545A3D",
"n. c #5B543C",
"m. c #595B3E",
"M. c #515837",
"N. c #56603F",
"B. c #4D633D",
"V. c #60462D",
"C. c #654A38",
"Z. c #64523B",
"A. c #6B533D",
"S. c #4B5E42",
"D. c #555541",
"F. c #555A41",
"G. c #5A5541",
"H. c #5A5D43",
"J. c #5C5E48",
"K. c #546242",
"L. c #5B6244",
"P. c #5D6349",
"I. c #5C694B",
"U. c #566948",
"Y. c #5F6C50",
"T. c #5F704E",
"R. c #5F7050",
"E. c #664E42",
"W. c #625442",
"Q. c #635C44",
"!. c #625D48",
"~. c #6C5543",
"^. c #6A5B44",
"/. c #6B5C49",
"(. c #6B5548",
"). c #745B48",
"_. c #7F5A51",
"`. c #616245",
"'. c #62644A",
"]. c #636A4C",
"[. c #6A644C",
"{. c #696A4D",
"}. c #616847",
"|. c #656B51",
" X c #6A6C52",
".X c #6B6856",
"XX c #69704F",
"oX c #63714E",
"OX c #647151",
"+X c #6B7253",
"@X c #6D7359",
"#X c #6D7B5B",
"$X c #6F7957",
"%X c #73644C",
"&X c #7B634C",
"*X c #76684D",
"=X c #746552",
"-X c #736B54",
";X c #756D59",
":X c #7B6B55",
">X c #7D6E5B",
",X c #7B6454",
"<X c #70704E",
"1X c #737255",
"2X c #72745B",
"3X c #737A5D",
"4X c #7A735C",
"5X c #7A795E",
"6X c #7A7256",
"7X c #796E61",
"8X c #737661",
"9X c #757A61",
"0X c #7C7660",
"qX c #7A7C63",
"wX c #7C7D68",
"eX c #72805F",
"rX c #7B8165",
"tX c #7D8269",
"yX c #748062",
"uX c #836C53",
"iX c #846C5C",
"pX c #836756",
"aX c #83725B",
"sX c #86765C",
"dX c #91775E",
"fX c #827B64",
"gX c #827D69",
"hX c #867663",
"jX c #907865",
"kX c #848166",
"lX c #82836A",
"zX c #85856A",
"xX c #838570",
"cX c #858970",
"vX c #8A8B73",
"bX c #8B8874",
"nX c #8D9279",
"mX c #90836A",
"MX c #9B8B74",
"NX c #A38B76",
"BX c #AB947D",
"VX c #AA9077",
"CX c #9C9B85",
"ZX c #A59D88",
"AX c #AC9A83",
"SX c #A89885",
"DX c #B29B83",
"FX c #B69D8A",
"GX c #A8A28A",
"HX c #B7A28A",
"JX c #B3A290",
"KX c #B9A692",
"LX c #AEA693",
"PX c #C0A68D",
"IX c #C5AD97",
"UX c #C1B198",
/* pixels */
"C ( m.m.Q.{.N.K.`.>.2.i y 6 8.u.F.p._ C b C E R b n j.7./.Z.J d 9 ;.gX0XW 5.2X9X@XyX( q.@XcX2Xp.E q.E ( tXtXE _ D.3XzX) R @XbX2X",
"/ ' M.c.l.N.L.oX`.V.3.| u 8 n.M.a.L M K M ; n h.x - H ~.>.=X/.9 A j.gX4X[.0.0.) ] q.( tX9XI.qXq.4.C 3 ! 9XE ` qX@Xq.! E q.v.2XgX",
"Z ` Q.m.v.L.K.].Q.^.C.p u 8 Q.b.u.u.! m P d.>.O.d # 6 ^.z.4XzXF @ &.W.4XbX|.L ! ) E yXtX|.wXxXV 9X9Xb b q.E 2XtXr.e.r.v.G._ 2X5X",
"Z 5.[.`.m.P.a.K.H.*XA.i 7 8 Q.m.b.( K &.>.=.X.a u 7 8 O.hX0XwX'.- &.*.5XzXqX5.F.8X#X#XnX9X` @X` 9XcXz = = @X Xq.4.2XzXqX{._ gX2X",
"L 5.'.J.H.].U.U.H.;X~.u 8 8 ~.Q.w.4.6.:.G w 7 u y f X.9 [.5X+XqXw.P U m.2XwX2X3XqX@XtXI.9XD.) 2XE C B z O ].2 4.3XtXqXwX9XQ gX9X",
"B 8.-X X+X3XR.U.m.[.).8 7 u 1.Z.d.l.7.w # u u 5 X.=.1.A 0 6XqX5X5XD F F 2X0XnX|. XnXq._ tX+Xq.E = yXq.3XF.. p.9XlXqX2X9XqXR qX5X",
"c 5.2X2X@X#XU.a.K.`.-X8 8 u g ,.1.g $ 5 8 6 h +.h.Z.Q.&.X h.fX4X0X7.D n J.2X@XQ vX'.4.5.3X9X2 . = I.cXE B b   9X2X9XcX2X5X! wX2X",
"c 9.{.`.b.K.a.u.|.'.hXh u 8 7 o.7 u u 6 9 ;.[.2X{.'.H.Q - - 4XfX&.! 0 Q r.lXG.! E _ Q ( ! tX|.= = yX@X! q.+X; +XtX@XqX3XtX! 5XgX",
"0 M G.|.F.q.^ D.`.gX=Xd 8 u y i u 5 w +.%X`.1XrXeXN.i./ 1 l 1X8.Q R e.n ) `.W 4.2X{.E lXO C vXi.; E 3XD.E 2X_ ! 9X9XwXwX3Xp.;XwX",
"0 W F.i.q.D.p.D.-X0X!.t 8 u i y 5 A >.%XsX5X<XXXeXzXN.I.( 1 3 Z 4.e.L n n I Q Q  XwX4.|.qX; ! 9X+ ( p.'.L B tX= J.8XzX2X2X`.gX2X",
"; Q J.p.r.F.G.E.hX;X<.S 6 u i | ,.{.{.[.n.6X6XkX6XvX].rXI.Z < < O O = 1 l K 5.*.gXqX- & 2X= O tX` r.V ` vX1 1 9X5.|.tX8XqX2XwXv.",
"q F D.J.D.D.E._.,X<.t 9 5 7 ..o.m.eX$XXXH.-X-X4XsX1X$XeXeX{ { < + ; = Q Q W j.I 5X0X& & qX@X3 e.K.E 2X( 9XF.O |.'.'.2X8XxXqX3X9.",
"n V q.D.G.(.(.pX,.s $ $ 6 y } ..h.N.+XoX6X<X<X*XkX6XeX<XXXB.U.' ` e.; _ *.M J.F 7.`.& - 2XcX; L ) E cX|.L.9XV o 8X2X9X2XqX9XwX7.",
"n ! a.s.G./.,.f y 5 9 9 J u  .y d.y.N.M.XX`.<X$X5XzXXX<X}.N.B.eX].( ( M I b.P F &.; ; & U B z q.( p.|.tXcX3X  = ` ].zXqX2XqXgXK ",
"v _ J.q.;.<.p 5 y f -.t <.p ..i A 6.m.}.XX}.N.N.XX3XXXXXm.{.`.5X2X5.P.K 4.{.- ; ;.- 7.E n O E _ s.L.tXtX@XlX& = o E 2XwXqXwX3X; ",
"b R p.! q 6 7 f p O.x.t k.8 ..y w 6.l.}.N.oXT.eXeXN.eX{.n.<XjX6.q.P.b K w.Q Q X v 5.! X ; O O 1 E 9XyXtXtX2Xl & o ; j.2XwXqX2Xq ",
"S W W t - @ e -.g.G.S t <.J 5 8 $ G h.`.i.+XyX9XL.Z.Q.n.c.Q.P.M.w.;X0 ; {.&.@ D n n R : & ^ ^ O - gX2XqXzX4X$ & @ - n !.bXbX.X- ",
"f g 6 # # s =.(.(.,X<.-.1.O.u 8 8 j :./.m.{.-X2X/.~.).~.Z.Q.[.J.W D S $ [.;.0 n.5.l : & O ~ ~ > @ `.4X5XfX2Xx ; - - q j..X/.D.> ",
"i ....} | i y y y | y y ..i } i } i i X.8 8 8 u y y p i 7 7 u h S X x - 7.D & c.;.& o O * N Y Y o U Q.H.n.b.q o @ o @ m *.F S @ ",
"y i i i | | i i i i i i i i .. . . .i y 7 u p i i y } } y y i u r 9 9 S 0 0 ; P K o = > o * , Y l ; n.H.h.n.K & 0 ; - l ;.~ M : ",
"| X.| y y u y u 7 y 7 i y i X.y o. .} | p 7 5 7 u 7 p p i u u # $ S n H c h.n.7.K q v : O o o , l o Q b.j.G.4.= @ . . = D.r.N o ",
"8 =.C.).,X,X).).iXsXpX,XA.1.,.X.i 7 i 2.pXk.>.z.>.;.>.1.k.C.k.O.0 n w.K w.gXkX X*.v = o o * O , ! z ) 9XqXrX!.V ; = * 1 wX8X! : ",
"D i.H.`.}.}.H.L.P.+X{.}.H.v.m.h.a 7 8 %.-XJ.e.q.K E E E Q r.5.n Q w.h.h.-XzXgXqX*.q o o * , , ~ ! K b 3X9X9X X] O O O O tX9XE O ",
"1 ) b.U.].].U.K.U.3X].B.a.M.].{.h s 6 $ j.|.I.q.4 Z C b B 5.4.x v.gXH wXkX6XqXqXQ : & & * * * ^ E ( = |.9XtXtX@XO = ;   wX9XE = ",
"z ) }.N.N.}.L.}.{.{.m.i.c.8.5.c.$.8 6 6 %./.J.r.M M 4 N M K W ; gXgX5.;X0XkX1XgX! q * o o * * ~ _ E   q.9XtX8XwX2 = 1 O 9XtXZ ; ",
"B ) M.M.e.n.M.m.m.'.{.{.}.M.e.m._.=.s # 8 -.x.t.W K M K M W &.@ gX8X*.wXwX5X5XqXH.M : & * & * 0.~ b R q.|.P.tX|.D.=   2 9X@XE O ",
"I 9.n.8.8.v.n.n.H./.[.[.J.e.r./.(.-.G 8 7 k $.-.g.*.R *.W *.;.- wX8XQ lXkX3XtXqX XR * & * o o ^ r.! N [ 8X. M tXtX1 ; O 9XtXC = ",
"( 9.b.h.7.n.v.H.`.`.`.J.n.4.5.J..X;.%.s # 5 k <.z.;.! 0.! 0.r.: 2XgXQ  XtX1XtXqX2X4.& @ * o O T ~ _ e.8XS.O p.! |.9XV . tX@X( O ",
"C ( p.q.q.p.r.D.H.H.J.P.L.] _ S.J.r.D.%.s # 8 H j.w.! ] ! ] S.M p.tX! p.qX3X5X5XwXP.m & > > > > * T E 8Xq.: xX_ b.qXrXl +XlXB O ",
"B ( S.r.0.e.e.p.v.r.q.e.p.` ! S.] ] J.G.-.d # # &.t.0.] [ ] ] ~ R @X5.4.3XrX5XqXwX8X! * o @ * X 2 : & 8XbX. 2XxXQ {.+X2XlX5X5XI ",
"R 0.J.r.5.w.0.x.D.j.w.*.0.q.r.S.{ ] ] ;.k f y s k x.r.e.s.q.s.0.! p.e.! b.3X3XrX9XwXr., @ o , * : T r.xX2X: 8X2Xv.Q H.5X3XkX+X{.",
"E e.J.D.! *.&.w.W.!.!.J.!.J.F.P.] ~ r.t.-.O.p 7 8 <.j.j.J.p.r.F.q.C ` L K L.3X5X2XxXJ.W v , W ! X wXt.> @ - W gX2X!.m h.m.r.I 4.",
"R w.D.7.E *.r.n.Q.'.;X|.b.Z.{.m.8.r..XW.O.=.O.5 5 s %.n.@X|.D.u.i.a.( ) 1 z kX$X5X3X5XI o - ZXF @ G.7Xq ;X;.q S 7XqXx wXqXwX4.V ",
"n 4.D.D.e.w.j.b.'.F.G.`.}.}.M.8.5.j.2XW.H O.O.f 8 6 e >.[.{.F.F.].a.b.E L 1 3X$XrX1X1X8.c &.GXh.@ t..Xt.LXJXD.X fX>Xq ;X0XqX0.q ",
"v ! D.J.D.e.p.F.J.L.`. X{.v.9.y.p.G.@XG.%.d.g.=.6 6 $ 9 ;.=X-X}.|.U.a.B.C Z y.eX+X5XfXh.$ 7.HXSX% % D.7XZXZXuXh %.7.% 7.*.F & X ",
"M E p.D.r.0.e.G.b.'. X1X{.M.9.m.L.U.|.v.! n.n.k.J d # % j g.^.aX].].m.R.Z C z 5XkX5X1XU r %XKXJXt % <.iXFXSXAXiXDX>Xr `.ZXGX2Xq ",
"M E 0.p.0.0.r.H.H.'.J.m.`.M.9.i.F.K.U.u.Q 8.i.c.Q.+.9 8 a w ,.iX5XP.|.a.M.C 3 a.rXqXkXP -.iXFXNXH $ $ S SXJXBXuXHXBXuXGXKXGXSX4X",
"v V 4.0.e.r.v.D.`.'.H.i.5.U B C ] K.I.u./ ) e.H.Q.^.>.w # 5 f ,.4X{.].H.N.M.3 Z $XqXcX7.d._.FXKXjX9 # =.iXSXIXpXBXBXsXBXGXSXSX:X",
"v M R E _ e.v.i.G.i.b.m.) z z C ` p.U.q.` i.i.J.H.5X[.J w a u 7 g.^.Q.[.J.{.L 3 rXyX{.j.g.=XSXFXJX$.$ (.C.jXBXuXPXBXuXBXGXHXGX*X",
"N V M m V 0.e.q.a.B K H.N.8.5.4.9.5.5.( u.K.a.i.3X{.Q.[.C.A 5 a 8 >.>XZ.{.m.M.3 3XtX5X5X*.7.>XSXSXjX# <.dXFX).V.DXBXuXDXVXHXDXuX",
"3 E M N q.V 2 4.5.4.4.i.P.M.5.8.8.7.8.9.N.5.y.N.I.P.}.<X%Xl.G $ w # 8 k.>X!.!.K q.lXqX XJ.j.*.;XSXJX:.O.uXuXPXf.uXDXV.DXBXVXPXV.",
"M _ B 2 B v 2 4.8.e.i.m.L.b.8.8.m.z.8.9.i.9.` B.I.I.].$X5X{.z.;.5 u 5 6 g.z.W.P Q wX@XCX@XP.p.7.JXFX:Xw uXuXBX).dXO.V.#.A.dX#.#.",
"l E ! E V b l B C 8.i.a.m.m.M.M.:.d.@.6.8.i.5.N.oXOXXX+X1X$X{.^.C.8 5 s 6 5 ;.;.W gX Xp.vX|.0.r.ZXSX:X$ V.).uXdXPXVXVXV.VXBXVXZ.",
": L q.r._ E E b b ) 5.4.i.M.i.i.D P I h.M.N.b.L.oXoXXX}.|.+X+X{.(.).,.6 # # e -.x.>XgXW ;XwX_ 0.LXFXsXr V.V.#.uXBXDXPX&XPXHXBX*X",
"V ! r.q._ q.r.) ) p.e.4.i.M.y.9.) 8.6.}.m.{.N.N.N.}.XXoXXX$X3X$X;XD.W.<.6 8 k # 5 iXiXx.;.wX- 0.CX;X<.X mXZ.@.#.&XVXBX*XBXBXHX<X",
"E ! 0._ ! q.r.` M.K.M.e.N.N.M.y.6.y.y.M.c.}.}.m.M.`.XXXX1X$X$X+X+XG.r.!.W.-.# 7 j 7 # $.6 7XfXq j.*.t - :XZ.U O.f.sXUX%X6XUXMXaX",
"4 E ] 0.] ] ` _ p.b.M.i.N.}.B.M.` / ` ` 8.N.{.m.h.N.}.}.XXXXXXU.U.S.Y.J.w.(.,.8 7 u u s 5 e hX;Xn G.!.w.r D c A.A.<XA.sX:X%XsX-X",
"N ! q.e.r.q.q.D.i.M.y.i.m.N.M.y.` / y.( y.b.XXc.8.v.`.{.-X$X+XP.S.s.S.H.w.G.1._.f 8 5 8 6 6 $ W ! F w.X - 6.d.l.n.#.l.d.P 7.@.P ",
"E _ e.G.4.b.b.e.e.F.b.j.J.b.q.8.E 5.i.i.p.L.J.H.i.b.H.].2X5X#X X].b.K.m.v.h.w.Q.n S *.9 - X X q > q @ 9 t 7XhXD J J dX6XP kXsX9.",
"E 9.e.p.Q v.v.x.e.b.v.r.h.v.j.p.4.q.u.q.a.P.P.a.p.F.P.|.@X@X|.K.J.`.-XQ.h.v.h.Q.l & M - ; l v - q X o $ - -.>.J e @.6XmX8.6X<X/ ",
"M Q 5.e.! e.D.F.r.j.b.v.5.r.J.J.v.i.5.i.J.].'.b.K.P.].+X3X@X'.M.y.Q.2XL.i.b.e.M.4.m K = & v Q M M M R % % H %.:.+.A - P c 6.8.c ",
"n Q e.w.4.v.J.!.v.e.D.D.e.p.{.J.b.M.i.i.K.{.|.J.].+X@X2X5X3X].b.9.M. X`.v.M.8.e.H.i.0.; = & K e.wX8XwXn q F D ;.&.+.U &.D U c c ",
"M ) v.e.r.j.F.H.H.r.r.r.e.G. XP.M.M.i.M.N.].].}.1X2X3X$X3X$X{.N.i.M.`.L.v.M.8.i.e.G.r.K ) = = ~ gX7X8X! ! *.;.qX[.&.I c D U c U ",
"K 5.p.e.v.e.e.e.'.v.5.4.5.G.'.P.M.i.i.M.N.N.{.}.+X$X$XXXXX{.}.N.{.b.b.c.e.r.e.v.v.J.r.4.D.v o = 8XtXwX~ v F K v.5X9.6.U <XkXM.6.",
"K e.b.0.v.q.4.4.J.G.q.4.p.J.J.b.m.b.m.N.`.}.}.}.K.].XXXX}.`.N.N.N.b.b.8.5.v.r.M.P.P.D.e.r.R E O T wXwXE o V 4.4.H.n.9.P 9.sX<XaX",
"K q.v.` F.e.q.q.a.J.M.e.J.J.p.M.}.N.N.N.}.XXXX}.i.`.XX}.N.N.`.N.8.i.m.8.5.J.b.e.e.e.F.F.0.` J.* 2 @X8XS.O : E _ I H.U 8.U <Xm.@.",
"K 4.F.D.F.J.4.p. Xp.q.G.|.P.F.b.N.i.8.N.XX<XXXoXN.}.N.b.b.N.b.b.N.M.8.5.i.m.F.a._ v.J.p.q.q.r.D._ 0.P.|.r.] p.s.M.) P c &.D +.7.",
"E q.P.J.P.P.q.a.v.e.q.U.|.F.e.e.b.i.M.N.XXXXXX}.N.`.N.N.N.N.N.M.b.M.y.4.8.p.b.e.4.e.q.r.r.q.r.Y.|.D.S.] C _ I.#XI.G.Q F x J d.,X",
"E q.P.P.'.P.p.D.F.b.L.].+X|.H.M.i.i.b.}.XXXX}.`.}.}.{.{.<XXX'.m.J.N.N.h.i.b.b.M.p.q._ r.p.e.p.|.@X].S.0.' s.Y.#XP.+XJ.H.+.%.>.,X",
"L q.L.|.|.].D.F.F.D.D.D.F.L.F.v.y.i.b.P.}.L.N.N.m.N.K.}.+XXXU.b.N.`.N.M.q.q.i.e.p.p.0.0.r.q.e.J.P.|.|.P.Y.U.U.Y.|.@X`.x.x 6 s 1.",
"C e.L.].|.P.L.L.L.F.p.a.F.J.L.D.i.v.L.P.P.J.J.K.`.J.L.].+X+XP.L.}.].}.m.i.e.i.i.q.v.p.] 0.0.q.p.J.|.|.OX@XR.U.Y.|.@X;XD.=.5 5 8 ",
"V e.p.J.].J.L.F.P.L.F.J.P.Y.P.F.i.b.F.F.b.m.N.H.].N.J.]. X|.].'.}.].].N.b.M.v.a.] p.p._ ] q.q.q.D.F.P.I.I.I.U.K.D.'.qX=X).G 8 5 ",
"l ] _ u.s.` s.q.] q.q.u.u.q.] q.4.q.e.5.4.u.q.q.q.4.4.u.i.5.8.5.5.5.y.5.) ' _ _ _ ` ! ~ ! E E ( 4.Q e.i.` ` { ( ] 5.;.&.$.j u p ",
"= C Z E E M E V V C C E V Z R ( C E Q L C L E L L C K L L B B B C C L C C L L L E Z 2 3 V 3 1 b ! B P C 1 3 C 4 3 b q H k j 5 u "
};
