/* XPM */
static char *tn055[] = {
/* columns rows colors chars-per-pixel */
"64 64 256 2",
"   c #030500",
".  c #050A00",
"X  c #0B0300",
"o  c #0B0C00",
"O  c #0D1100",
"+  c #130400",
"@  c #130D00",
"#  c #1C0300",
"$  c #1B0B00",
"%  c #121401",
"&  c #14140B",
"*  c #141A01",
"=  c #1A1402",
"-  c #1A1B03",
";  c #1B1B0C",
":  c #16180C",
">  c #1B1A11",
",  c #1B2204",
"<  c #1D220A",
"1  c #18290A",
"2  c #1E2B17",
"3  c #193111",
"4  c #230300",
"5  c #240A00",
"6  c #2B0300",
"7  c #2B0B00",
"8  c #241201",
"9  c #231A04",
"0  c #211C0A",
"q  c #2B1303",
"w  c #2C1D0A",
"e  c #2B1905",
"r  c #241E12",
"t  c #330300",
"y  c #320B02",
"u  c #3B0200",
"i  c #3A0B03",
"p  c #341105",
"a  c #341409",
"s  c #341A0B",
"d  c #3B1309",
"f  c #38150A",
"g  c #381D11",
"h  c #22240C",
"j  c #24290D",
"k  c #2B230C",
"l  c #292C0E",
"z  c #242207",
"x  c #252B11",
"c  c #2B2612",
"v  c #2A2B13",
"b  c #272816",
"n  c #26300E",
"m  c #2A3116",
"M  c #2D321A",
"N  c #293816",
"B  c #2D381E",
"V  c #253518",
"C  c #32210C",
"Z  c #3D230E",
"A  c #332412",
"S  c #332B14",
"D  c #342D19",
"F  c #3B2314",
"G  c #3A2B15",
"H  c #3B2C1A",
"J  c #3D251B",
"K  c #32341C",
"L  c #33391D",
"P  c #3B321C",
"I  c #3A391E",
"U  c #343216",
"Y  c #2D3322",
"T  c #2F3F22",
"R  c #343521",
"E  c #343A22",
"W  c #3A3522",
"Q  c #3A3C24",
"!  c #3A3C2A",
"~  c #363729",
"^  c #36401E",
"/  c #2D4123",
"(  c #354124",
")  c #3B4225",
"_  c #3D422A",
"`  c #3C4A2D",
"'  c #354729",
"]  c #3C4332",
"[  c #3E4B31",
"{  c #3D512E",
"}  c #410201",
"|  c #480403",
" . c #430B07",
".. c #43100A",
"X. c #421E13",
"o. c #530206",
"O. c #521B16",
"+. c #44291A",
"@. c #42341D",
"#. c #46381E",
"$. c #533B1F",
"%. c #492D22",
"&. c #443422",
"*. c #433A23",
"=. c #433D2A",
"-. c #4A3323",
";. c #4B3B26",
":. c #4B3B2A",
">. c #493529",
",. c #493F33",
"<. c #532A21",
"1. c #533629",
"2. c #563D26",
"3. c #533C2C",
"4. c #57372A",
"5. c #563E32",
"6. c #603A2F",
"7. c #424226",
"8. c #42442C",
"9. c #43492D",
"0. c #4A432C",
"q. c #4A4A2D",
"w. c #464427",
"e. c #434631",
"r. c #454A31",
"t. c #4B4531",
"y. c #4A4C34",
"u. c #4C4D39",
"i. c #424439",
"p. c #41502E",
"a. c #435134",
"s. c #455938",
"d. c #4B5235",
"f. c #4D5239",
"g. c #4D5A3B",
"h. c #455638",
"j. c #52432D",
"k. c #594229",
"l. c #514A2E",
"z. c #534432",
"x. c #524A34",
"c. c #544D39",
"v. c #5A4333",
"b. c #594935",
"n. c #5B4B3A",
"m. c #544639",
"M. c #515135",
"N. c #52543B",
"B. c #545A3D",
"V. c #5A533D",
"C. c #595C3E",
"Z. c #59603E",
"A. c #694C3D",
"S. c #634938",
"D. c #62523D",
"F. c #704C3E",
"G. c #61472C",
"H. c #4E5D40",
"J. c #5D4D40",
"K. c #535540",
"L. c #555A41",
"P. c #5C5541",
"I. c #5A5C43",
"U. c #5E5D48",
"Y. c #4D6142",
"T. c #546143",
"R. c #5C6244",
"E. c #5D6249",
"W. c #58694A",
"Q. c #5E6C51",
"!. c #5E7354",
"~. c #635241",
"^. c #625C44",
"/. c #645E49",
"(. c #6B5443",
"). c #6A5B46",
"_. c #6B5B49",
"`. c #6A5648",
"'. c #704741",
"]. c #745A4A",
"[. c #616445",
"{. c #62644B",
"}. c #646A4C",
"|. c #6B634B",
" X c #6A6B4D",
".X c #676346",
"XX c #636550",
"oX c #656B51",
"OX c #6C6551",
"+X c #6A6C53",
"@X c #696E58",
"#X c #67714E",
"$X c #657151",
"%X c #6C7254",
"&X c #6D7259",
"*X c #6A795B",
"=X c #71634B",
"-X c #7B664D",
";X c #716C4F",
":X c #726551",
">X c #736B53",
",X c #736D59",
"<X c #7B6A52",
"1X c #7B6D5A",
"2X c #796654",
"3X c #727155",
"4X c #73745C",
"5X c #747A5D",
"6X c #7A745C",
"7X c #7A795D",
"8X c #777457",
"9X c #736D61",
"0X c #757562",
"qX c #757A61",
"wX c #7B7561",
"eX c #7B7C63",
"rX c #7A7C68",
"tX c #74825F",
"yX c #748360",
"uX c #7B8165",
"iX c #7D8269",
"pX c #836B4F",
"aX c #846855",
"sX c #82725B",
"dX c #8B745C",
"fX c #80745A",
"gX c #827B63",
"hX c #8A7B64",
"jX c #857865",
"kX c #927E67",
"lX c #818165",
"zX c #82836B",
"xX c #83896E",
"cX c #89846B",
"vX c #868A71",
"bX c #8A8C75",
"nX c #92856A",
"mX c #988974",
"MX c #959379",
"NX c #899277",
"BX c #A38E73",
"VX c #A4927A",
"CX c #AA947B",
"ZX c #A89579",
"AX c #B0987E",
"SX c #AD9A83",
"DX c #A79A86",
"FX c #B39D82",
"GX c #B59D88",
"HX c #ACA085",
"JX c #B4A38B",
"KX c #BAA389",
"LX c #B6A691",
"PX c #C0AB8E",
"IX c #C0AC93",
"UX c #C4B299",
/* pixels */
"qXeX8.8.@XeXE.Q 8.eXvXB Q 9._ d.5X5X$Xw.^ tX7XtX8XI I fXcXb.C = *.|.c.V.*.P 9 _.P.^.U.N.T.oXT.{ s.g.J 6  .t aX2X,XK.W.r.f.E.B < ",
"eXV.K L y.N.E.eXE ) &XE * ( E ) 7X5XvXuXM.7.N p.7.q. X8XfX@.e k /.8XP.b.@.9 H =.N.V.V.B.W.&XT.E [ L.v.y u t aX:X@XE.oXf.f.XX( V ",
"qX=.y.L.N.y.N.qXuXQ 9._ j qXuX) xX XuX7XW.q.) 7.U >XtXfX X@.e *.jX4XjX=.k = P S c :.^.{.+X@XI.` B N.].6 u i aX>X@X@X@X[ 8.K.K , ",
"eX=.qXrXqX4XN.r.rX{.* * < &X*X`  XM.$XuXvXtX%XB.C.tX7XgXl.@.k ~.zX>XbXD 8 0 c H + c b./.OXOXP.9.K t.].t u i 2XOX*X*XyXH.f.K.Q 1 ",
"zXI eXeXqXvX&Xf.* L.j O Q L.V zXq.B.7X4XqX&XlX&X4XlXeX^.k k c.7XeX6XI.h 0 k S &.= 8 w @.~.,X~.*.8.:.A.y t y ).}.Q.!.*XoXE.I.8.E ",
"cXK qXqX4XeXeX0X8.* E.&X) E.* B m 5XuX9.9.7XMX}.eX4X7Xl k I gXgXzXwX% k K k :.H 8 $ + $ H S.~.b.z.:.<.t i p _.oXY.W.Q.@X{.c.) R ",
"eXW eXzXeX4XuXqX. j x L iXbX  j l iX XQ 9.uX4XQ 7X5X[.0 U q.6X6XiX9.. R 8.L *.S w e 8 # 5 g >.v.:.3.d t y p /.T.Y.W.Q.XX^.c.8.K ",
"wX_ eXeXrX4XiXoX< {.` r.&X@XV . $XiX8.Q ) Q L 8.C.uXM.8.k W 7.qXqX. x y.t.0.c P :.&.F 8 4 7 p s v.A.i i 4 7 n._ / s.g.d.t.q.! x ",
"eX=.&XMX>X@XxXM r.eXx N.qXr.O h.uXu.* qXM {.@X8.8.N.8.K 7.! I y.7X< % f.I.W v D c -.3.v.e 7 4 7 7 p i u y 4.W r.Y.{ R.&X/.P.y.x ",
"wX{.zX+XzXbXy.x @XB ( &Xd.M   iXh.  oX&Xr.bX0XL Q x S v 8.8.d.Q O V f.g._ Q 7.S S W z.D.3.+.s 5 7 p 6 u i 5.V.d.h.h.U./.V./.K.x ",
"eXeXvX}.zX&X8.oXj < eXK E r.H.uX< - &X- % &XzXR x.Q v ; O o O O O B B.g.E L W M S D :.n.~.v.>.f 4 i 6  .t +./.U.L.f.P.n.b./.H.N ",
"eXeXeXrXqXN.&X&Xo I.xXM &X_ g.h.. qXvX. * eX0X=.u.=.K 8.O < * & d._ ) _ Q V L _ Q L t.=.b.j.n.3.X.y u ..6 6 j.V.@XV.n.D.b.y.r./ ",
"4XrXeXeXeX4X0X* % vXoX@XxX_ x _ , *XiX* % @X=.W I.R D ! h ] g.( h.f._ V x E r.h.` r.I.r.e.=.P.V.].t u u u 6 s G n.n.S.(.n.y._ B ",
"gXqXzX&XvXqXQ   O qXuX&X%XI.' r.M Y Y O o - Q h Q K.r.O H.E ~ h.d.u.E V ( ` [ a.[ B.oXI.t.! u.x.(.6 u u i t # 5 s >.5.v.~.U.{ 3 ",
"zX6XeX0X0XE * j v }.vXqXeXH.( E x < * _ 8.- c.% . {.U.x @Xa.2 f.H.e.B ` H.a.T ' h.H.T.L.9.u.u.0.F y i u O.i p 7 # s +.+.b.I.' 3 ",
",XcXqXqXV.. < o O zXqXeXqXeX) < - . O ; R 8.0 @ ~ t.! _ % u.f.! d.a._ 9.K.a.( d.W.T.a.h.` T.L.c.7 y u i F.6.3.5 5 5 4 f 3.r.V 3 ",
",XbXjX4X9 0 = @ = rXjXwXjX7X- = 8.8.% = K c c D @ =.,X@ w P.,.c.r.` r.y.c.c.c.u.0XW.i.H.] K.m.~.7 6 6 g 5.n.t.=.w 8 4 5 w J D b ",
"c..X^.V.= = $ @ = 9XrXjXeX^.% @ R ~ = % 0 h =.^.- S 1X= J ,.m.m.e.0.q.z.v.5.v.J.OXL.e.K.u.J.5.4.6 i d g >.>.&.>.>.J 7 6 4 7 a s ",
"S I =.K = o @ ; > /.K.N.c.v 9 k b b & % @ % W V.k 8 t.8 8 @ w $ 5 7 6 t u t y d f y 6 p t d u u u | u u i i y ..i } } u | u t 4 ",
"j I 8.- = % @ : b U.V.U.L.k l l ; @ o : = = c D c k 9 C $ $ $ 8 7 6 t u u u u u 6 6 6 t t u u o.o.o.u u u u t t u u u u u |  .| ",
"U N.E.* % % % - ! U.N.U.8.o - o & X o ; h b K 0.c.V.w U S k $ C p y 6 y y i 6 6 y f p t  .| u | } |  .i p p y 7 6 i u u u u 6 6 ",
"Q &X0XO % % % b rXiX4X&XW x Q b & o & & & b =.4XwXgXq.P ;.k @ e _.(.A.(.]._.D.m.m.m.3.1.'.<.| u i <.F.A.S.v.l.G.(.].2XaXaX].S.%.",
"I 5XuX* O * % r.@X0XiXeXB E _ b : & & o @ > ~ zXqXcX XV.y.V.*.7.[.I.C.^.E.L.L.h.g.f.u.m.`.+.6 6 5 &.D.C.d.p.p.d.[.[.C.q.q.M.9.L ",
"L 5XqX, o * * oXrXrXiX@XO K e.] & & & o > c K eX7XcX7X7X#.8Xl.q.[.R.R.R.W.T.T.W.( [ e.=.m.5 # a -.C.}.Z.g.s.s.s.T.R.R.R.W.T.9.N ",
"B 5XiX* O * V &XiXeX&Xi.O ~ ~ ] > X o > : & ! qXqXzX7X7XI cX3Xy.[.D.C.Z.R.Z.H.T.N.8.H z.+.# y 7 (.V.C.R.g.a.s.B.d.[.B.[.[.d.d.N ",
"Q 5X5X, O O d.zX*X&XuXR 2 ~ [ ! & & & . : ! E.4XwX7X3XuXI eX7Xl.|.[..X}.}.}.{. X+X:.z.+.y y i <.dX8X+X.XB.h.C.+XN.B.q.w.9.) L , ",
"^ iX*X* , j 5X%X* < Q.i.~ ~ ~ Y   & &   O _ @XuXzXqX4XxXI 5XzX0.=X=X;X3X%X%X%X>X].2.1.d 4 y X.S.2X;X[.V.d.q.K.&X3XI.x.7.w.r.L n ",
"v iX5Xo ^ }.uX7.I.* r.&X~ ~ ~ K.  & & & > ! XXiXqX5XeX3XQ iX&X8.;X>X8X7X7X%X3X>XV.v.p 7 4 y S.(.^.P.y.9.9.p.g.&X>XM.y.#.0.d.N 1 ",
") qX7Xj  XtXC.q.iX. u.bX~ Y > o : & O & Q XXqXqX&XqXiXf.) iXy.] #X%XtXtXtXtX3X XD.2.5 4 F 3.,X1XeXXXN.r.r.s.T.*XL.! 8._ f.g.V 3 ",
"7XuXuX}.lX[.L %XuX% &X,X> o > &   & O & ! 4XzX0XuXxXqX! _ &XR ]  X#X*XtXyXtX%X|.b.s 4 # W :X+XrXvX Xh.r.[ s.Q.&Xy._ r.f.L.H.T 3 ",
"7X8X3X7X[.q.q.cX[.M bXrXK.~ > o O & * h e.&XiXqXxXqXg.e.] h.] g. X#X5XtXtX7X XD.g 4 6 p S.1X|.qXwXu.t.r.E ] E.I.r.=.=.u.K.[ T 2 ",
"I N.N.^.l l.lX7X0.X % 0 =.9Xr r i.< O R oXqXeXqX&XB.< _ ! E U.@X%X%X*X8X7X>XD.2.4 p 7 4.sX1X&X&XXX=.y.f.M Y K._ c.P.t.K.K._ ' Y ",
"*.7XgXfXS 7X8XS @ c.>X9 4Xm.$ b DX< o ! OXxX4XgXzX% % Q r.f.L.&X#X#X%XlXdX_.+.y 4 f 5._.,XqXW.' s.d.E.B Q f.h f.K.L.y._ u.f.! v ",
"@.lX7X;Xz lXfX8 :.LXDX&.jX5.+ `.DXU = t.wXgX,XwXeX% h R r.H.W.*XZ.W.#X8X=Xj.g 7 i 5.1X,XoXqXtX{ _ r.I.v 8.+X_ y.r.y.r.y.L.f.Q v ",
"% w.l.l.X @.0.= 7XGXGX,Xn.$ + mXLXu.= w.wX6XqXzXt.% K E h.T.E.oXZ.}.;X.Xj.s 4 4 %.`.sX@XE.$XW.{ 9.8._ 8.E.oXr.y.K 8.r.8.d.y.K < ",
"3XAXmX.X8 1XHXfXDXVXSXjX>.+ s LXJXOX= &.4X6XzX0X% * V V r.r.W.T.%X#X.Xl.A $ $ q J.n.n.P.K.T.g.{ r.r._ y.E.I.8._ Q {.oXy.r.f._ x ",
"JXZXZXUXnXBXZXpXVXIXZX&.C $ ;.GXDXjXA ,.jXiXeXd.O B 1 1 E Y $XI.7X|.0.C # @ g >.).m.t.c.d.C.Z.g.Q E.K._ r.L.B.b y.&X4XE.f.8.M x ",
"AXJXZXZX-XAXLX<XSXCXdXq # q <XCXDXkX>.c.wXrXqXB x T.B _ N.f.oXB.^.;.q X + w 5.|.:XOX|.u.) d.Z.d.) K.K.r.9.N.B._ f.I.}.oXB.K - ; ",
"AXZXHXPXnXBXKXpXAXdXaX2.4 2.GXGXVX,Xw.P.&XqX*XE ' }.y.E.4XjXc.;.+.e # 5 A z.{.1X6XwX4XM.I ) d.l.B._ r.B.N.r.r.u.L.E.{.{.E.9.m j ",
"AXPXAXZXdXAXFXk.aXCXkX2.7 pXGXSXsXt.=.&XuXuX&X( f.L.8.I.1XmXH J 5 4 8 +.n.:X,X&XzX XU.B.9.8.M..XI.9.y.u.d.g.8.8.y.{.U.9.y.C.9.; ",
"ZXPXAXKXk.AXdXk.AXaXdXZ 2.GXKX2X0.8.H.iXqXQ.Q.V E.>Xx.n.(.+.p 7 7 e 5.v.wX1X{.@X7X}.%X9.- U q.q.U.N.f.K.M.9.8.r._ E.oXf.d.E.r.h ",
"G.pXG.$.$.G.pX-XFX<X=Xq dXmXBXj.8.uXiX&XNXuXL h v ^.|.].3.5 4 y 7 J n.`.jX4X{.+X7XoX$X) z w.N.q.I.f.r.r.y.y.I.@XE.0X&XN.8.y.Q - ",
"PXBXBXk.AXAXBXnX<XdXj.$ dXLXLX0.8.&XqXL.0XeX8.P.z.0.F s a y y 4 J >.m.J.>XU.&X&XtX#X X9.L Z..Xq.r.r.f.y.r.f.E.}.@X7X@XN.r.r.) v ",
"ZXKXKXpXPXBXUXD.k.).;.5 =XZXCXx.t.iXqXy.,X7Xj.V.~.3.s 4 4 a <.1.>.,.=.e.U.y.3X$X%X}.#XM.l.#X XM.d.L.L.I.I.{.oX+XU.E.E.L.L.L.r.L ",
"KXZXHX-XBXSXfXj.C V.hX@ b.hXDXt.@ wX0.c mXkX%.+.q 4 7 5 q F -.&.~ ~ ~ ] I.u.}.Z.#XZ.}.[.[. XZ.C.L.K.N.N.I.oX@X@XI.L.L.I.{.U.r.B ",
"KXLX=X<XAXcXk.S G V.sX8 - W z.@ hXjXA &.jXA.p 7 6 4 q -.].,Xx.R ~ b b Y r.] R.d.#XZ.}.#X.XZ.p.M.y.y.r.d.N.N.f.y.L.K.N.B.I.I.r.K ",
"=X>XfX=XcX=X;.|.P D = b.n.e.:.wX2Xq + y f 6 y i y y %.b./.L.K _ ] 2 Y 2 Y 8.B.B.}.[.#X.X[..Xd.d.N.u.N.E.E.d._ Q y.N.L.L.I.I.y.E ",
"j.G w.@.v.*.).c.H c.o o t.W e.=.q 7 s 6 6 y 4 y 4.5.~.~./.8.< ] ] 2 ] ] r.h.B.I.[. X#XZ.}.#XZ.g.M.r.r.f.f.8.8.d.8.L.{.E.R.I.8.K ",
"<XmX#.lXjX9 H c wXhX$ ; c = r X q 4 # # 5 q A &.c.m.u.! XX4Xu.u.e.K M r.B.E.{.U.I.{.C.+XE.{.f.f.e.] y.r.r.9.9.w.w.Z.Z.M.B.Z.q.Q ",
"7XfX#.7X8X0.P S W =.@ o o o > r 5 a q F :.0 = U.u.e.! r.XXU.=.u.R E _ 9.y.E.&XoXI.E.oX@X}.K.f.B.g.u.r.8.9.d.B.C.B.E.Z.B.Z.R.d.L ",
"#.#.S w.z k 9 =.t.D > + ; ; > $ :.4 # 8 @ P XXI.e.f.8.r./.u.8.7.b Q r._ Q I.4XoX&XL.E.I.&XB.M.8.e.8.8.r.M.L.Z.C.Z.[.Z.Z..XT.7.L ",
"U C C S k =.:.t.S = ; 0 K.9X0Xc.H s 8 A n.eX0XI._ R.8.8.M.d.z.c j Q d._ K y.XX{.4XL.y.y.E.u.r._ _ ~ Q r.C.R.R.[.[.[.Z.Z.}.C.) L ",
"l Z U S @.@.x.P =.8.W Q OXrXrXY $ e 0.6XcX7X XE.9.L.) ) x.M.c.c L ! y.9.) r.I.E.{.E.f.f.Q _ 8.K.N.e.! 8.N.T.}. XZ.[.Z.Z.}.C.9.) ",
"D.8XD.j.q.I ^.x.=.Q 0 ! 0XjX@X: - k ^.eX[.}.5Xd.Z.r.) B.E.I.N.w.Q K ) y.8.8.f.L.E.{.y.y.L r.y.L.K.u.r.d.B.I.R.}.Z.[.Z.C.R.C.9.) ",
"dXnX#.#.0.^.V.9.r.c o Q rXzX! X l  X+XC.7XiXT.g.T.) d.R. X^.M.M.Q K Q r.8.8.8.r.L.L.y.8.9.L.L.y.] ] r.K.U.C.B.Z.}.#XZ.M.C.C.9.L ",
"l.<XP w.P .XW 9.K % % r.0X0X; h [.}.E.R.}.$X}.W.s.) Z.Z.C.[.q.9.Q Q 8.r.r.8.r._ _ f.E.8.y.u.I.d.u._ 8.u.B.B.[.%X#X%XR.d.I.E.q.K ",
";.k G ;.S I M.d.N.) r.qXE.E K.I.r.W.%XW.d.Z.#X#XR.p.d.E.%X XN.d.r.y.r.L.K.r.r.v E L _ r.8.r.y.r.u.e.8.r.T.[.[.C.[.Z.C.C.Z.[.q.U ",
"S.;.G G *.c.[.OX&XQ L 9.9.B.%XqXd.g.Z.d.) s.W.Z.d.d.B.}. X XC.N.8.r.r.E.E.y.r.M L W 9.y.8.8.8.Q u.r.y.f.T.[.R.[.Z.Z.C.Z..XZ.d.) ",
"k.@.A :.=X|.[.4X5Xr.a.Q 9.+X@X%XoXE.B.y._ d.B.g.) C.I.$X$XE.{.N.r.8.r.R.E.y.r.! E _ f.L.y._ Q M _ ] f.f.N.C.R.W.[.Z.Z.Z.R.C.9.L ",
"e $ C ).lXOXE.%XoXT.$XQ.R.&XoXR.5XoXT.g._ ^ 9.` _ }.[.%X+XI.+Xd.M.E K r.9.Q 9.9.8.r.E.E.N.r.Q B R ! 8.9.q.y.Z.[.Z.Z.Z.Z.E.R.q.m ",
"5 $ &.=X|..X%X*X$XtX#XtX%X}.5X%X&X%X&XoXf._ y.f.h.%XE.+X+XE.@Xu.r.v x m v M ! M.B.I.+X&XE.d.8.K R R R E ) 9.C.R.d.[.[.Z.}.%XM.l ",
"5 s D.|.x.[.5XR.#X#Xg.#X*XR.%X}.{.XX&XoXf._ e.r.M.{.K.T.W.W.W.r.E < v m v K _ B.E.U.{.XXN.r._ K M M M K Q ) d.M.d.Z.Z.C.Z.}.9.- ",
"5 F b.z.#.q.d.) { { ^ p.g.d.9.9.8.r.y.r.K D M b e.r.e.r.r.r._ B j - M v j M L y.f.9.r.` Q E L x j x b x j l U ^ w.w.7.^ 7.^ j * ",
"q s w C k , , ^ 1 1 N , n ^ n ^ R R R R Y Q Q M ~ K E Y Y Y < * * O x - o - j K R v x k < j j ; % ; < - * * * , n , , j j * * - "
};
