/* XPM */
static char *tn053[] = {
/* columns rows colors chars-per-pixel */
"64 64 256 2",
"   c #020300",
".  c #060A00",
"X  c #0B0300",
"o  c #0A0B00",
"O  c #031A00",
"+  c #0C1400",
"@  c #0C1A01",
"#  c #0A1704",
"$  c #130D01",
"%  c #1B0200",
"&  c #1C0B00",
"*  c #150400",
"=  c #131300",
"-  c #141A02",
";  c #141C09",
":  c #191401",
">  c #1A1409",
",  c #1B1B04",
"<  c #1C1D0A",
"1  c #13140A",
"2  c #1F1B12",
"3  c #0A2405",
"4  c #152006",
"5  c #142209",
"6  c #1B2005",
"7  c #1C230B",
"8  c #1B280D",
"9  c #16290D",
"0  c #1F2213",
"q  c #1C2A10",
"w  c #152613",
"e  c #1C3115",
"r  c #240400",
"t  c #250A00",
"y  c #2C0300",
"u  c #2B0A00",
"i  c #231203",
"p  c #201709",
"a  c #211C06",
"s  c #231D0A",
"d  c #2C1104",
"f  c #2C1F0E",
"g  c #231D12",
"h  c #241F19",
"j  c #320200",
"k  c #320B02",
"l  c #390400",
"z  c #3B0A04",
"x  c #3D0E08",
"c  c #331105",
"v  c #34140A",
"b  c #331A0D",
"n  c #3A120A",
"m  c #3A190A",
"M  c #341E12",
"N  c #3D1A10",
"B  c #222006",
"V  c #23230C",
"C  c #22290E",
"Z  c #29240D",
"A  c #2A280F",
"S  c #232411",
"D  c #232A12",
"F  c #2A2512",
"G  c #2B251B",
"H  c #2B2B13",
"J  c #2C2C1A",
"K  c #25201A",
"L  c #243116",
"P  c #253319",
"I  c #2B3116",
"U  c #2C321B",
"Y  c #2E391E",
"T  c #30290F",
"R  c #332514",
"E  c #312B14",
"W  c #332D1A",
"Q  c #3C2315",
"!  c #392C16",
"~  c #3B2A19",
"^  c #33331C",
"/  c #32391E",
"(  c #3A331C",
")  c #3B381E",
"_  c #353016",
"`  c #272F20",
"'  c #2D3A21",
"]  c #2A3622",
"[  c #3A2D23",
"{  c #323422",
"}  c #353B23",
"|  c #343928",
" . c #3C3521",
".. c #3B3B24",
"X. c #3B3D29",
"o. c #373329",
"O. c #3F3830",
"+. c #344125",
"@. c #364229",
"#. c #3C4126",
"$. c #3C422A",
"%. c #3B4A2C",
"&. c #31482B",
"*. c #364231",
"=. c #3C4431",
"-. c #3D4B32",
";. c #38512E",
":. c #3F5236",
">. c #420904",
",. c #40120E",
"<. c #40160A",
"1. c #421710",
"2. c #44271A",
"3. c #49371F",
"4. c #442D20",
"5. c #4B2D22",
"6. c #433423",
"7. c #423B25",
"8. c #423D29",
"9. c #4C3224",
"0. c #4A3C2A",
"q. c #4A3A27",
"w. c #522C23",
"e. c #533B2B",
"r. c #563628",
"t. c #523C30",
"y. c #5A3C32",
"u. c #493C33",
"i. c #633F33",
"p. c #434026",
"a. c #43432B",
"s. c #434A2D",
"d. c #4A442D",
"f. c #4B492E",
"g. c #4A4025",
"h. c #434431",
"j. c #444A32",
"k. c #4A4532",
"l. c #494538",
"z. c #4B4B33",
"x. c #4B4C39",
"c. c #424838",
"v. c #49502F",
"b. c #435134",
"n. c #4C5135",
"m. c #4C533A",
"M. c #4D593C",
"N. c #445339",
"B. c #55422D",
"V. c #524531",
"C. c #524B34",
"Z. c #524E39",
"A. c #5B4234",
"S. c #5B4D39",
"D. c #5A4937",
"F. c #515436",
"G. c #53533B",
"H. c #545B3D",
"J. c #5A533C",
"K. c #595C3E",
"L. c #5A5037",
"P. c #614639",
"I. c #62473A",
"U. c #60543D",
"Y. c #68523B",
"T. c #4B5443",
"R. c #4A5744",
"E. c #534E42",
"W. c #535541",
"Q. c #545A42",
"!. c #5B5541",
"~. c #5B5A42",
"^. c #5C5D49",
"/. c #545F4E",
"(. c #4D6042",
"). c #566144",
"_. c #5B6243",
"`. c #5D634B",
"'. c #5D6846",
"]. c #5C6A4C",
"[. c #576553",
"{. c #5F704E",
"}. c #664D40",
"|. c #635441",
" X c #625B44",
".X c #635D49",
"XX c #695D49",
"oX c #685944",
"OX c #735549",
"+X c #735C4E",
"@X c #755D50",
"#X c #626246",
"$X c #63634B",
"%X c #63694B",
"&X c #6A634C",
"*X c #6A6A4D",
"=X c #686546",
"-X c #646551",
";X c #646A52",
":X c #6B6551",
">X c #6B6C53",
",X c #6B6D58",
"<X c #6B6559",
"1X c #68704E",
"2X c #6B7254",
"3X c #6D725A",
"4X c #69755B",
"5X c #71624C",
"6X c #71684D",
"7X c #726552",
"8X c #736C54",
"9X c #746E59",
"0X c #7A6C59",
"qX c #776858",
"wX c #727155",
"eX c #74745B",
"rX c #74795D",
"tX c #7A745C",
"yX c #7A785E",
"uX c #747857",
"iX c #6F7960",
"pX c #706C60",
"aX c #757661",
"sX c #757A61",
"dX c #7B7660",
"fX c #7B7B62",
"gX c #7B7E68",
"hX c #758065",
"jX c #7D8065",
"kX c #7D8169",
"lX c #78856E",
"zX c #7F8C72",
"xX c #846D5F",
"cX c #80755E",
"vX c #817561",
"bX c #827C64",
"nX c #837E68",
"mX c #8A7C6A",
"MX c #897F66",
"NX c #818066",
"BX c #83836A",
"VX c #83886E",
"CX c #8A846C",
"ZX c #8B886F",
"AX c #858B72",
"SX c #8A8A72",
"DX c #878571",
"FX c #889178",
"GX c #90896D",
"HX c #928E78",
"JX c #918D76",
"KX c #92927B",
"LX c #969A81",
"PX c #B1AC96",
"IX c #B3B19A",
"UX c #A8A28C",
/* pixels */
"$ h $   1 1 . 1 ` w 1 w w w w O q $.Y D S J X.$ g G G u.o o { J u.S o : G G s V + = S U X.#.Y $.' &.] 9 q -.E 6.M N c k k b u r ",
"K   > o.2 $ 1 X ` T.c.o.*.| -.:.%./ D = : X.E.E.> o.E.o.$ S 0 m.W g G G $ , X.c.H D -.a.$.z.j.} b.:.:.&.q c.8.V.q.1.n y y y t t ",
"O.` ` [ ` * X $ 2 .Xl.> $ 1 h o.} } c.D < h.l.l.l.<XE.o 1 { < h.E.x.^.l.< G .X`.| G W.H.T.H./.$.} 4X4XfXgXHXoXxX5.n y y u y u N ",
"o.u.o.2 > 1 $ $ h E.u.> X * M o.U a.n.D S l.O.: G DXpXc.X.{ Y J l.Q.-Xl.S { G.W.x.X.`.-X%X$.X.j.~.^.!.9Xk.+XD.t.c j j j k k v Q ",
"2 ` *.] . K o.1 > p > & * t t.8.G.F.U , D x.E.; X u.l.c.H.E.c.< S l.x.{ S S X.`.m.`.;XQ.].Y - d.S.qX0.S.|.D.r u y z z j y v b M ",
"*.T.R.*.] o.o.| l.F : > * W <X:X`._.j.!.G.O.W.u.G . 2 2 x.,Xc.= U c.{ < J J J H.7 ^.m.U b.@.- j.qXt.t d % u v y n ,.n y y b Q Q ",
"[.gXR.*.[.*.w *.c.{ 0 S < J !.W.Z.~.aXHXaXh.u.x.{ < x.W.,X/.X.{ x.X.S 7 U 7 ; J o s.I 6 I s.6 d.A.y.d % M % r u 2.1.u y u M R R ",
"/.[.R.R./.*.w 1 o J ' $.%.$.$.| $Xz.;XeX-X!.X.=.o.| o.W.aXc.H.Q.Q.%.$.j.{ - ; H ^ -.C C 7 } + H Q b r % b r 9.r.y.1.y u b Z < : ",
"l.E.g [ { c.o.< | $.T.rXlXsX4XhXL.f._ I ,X=X,X-Xx.o.| -Xx.| Q.;Xc.X.H + S 7 U | X.a.V D I #./ ) & t d i 4.t.9.}.I.c % M k...= - ",
"u.y.9.[ ~ |.D.l.!.eXgXsXgXkXhXsXcXwX=X) , ~.x.S W.=.$.X.j.c.Q.2 $.{ U J U D } H.j.$.sXrXG.s.#._ 6.@X0Xt.[ 0.0.S.}.6.~ ~ k.$.9 9 ",
"x j n y % n n 5.qXmXmXqXvXnXfXbXCXcXNXv.a.< $X| x.0 + W.h.$.$.H.j...c.rXgX4X~.H.G.$XeXjXyXz.*XJ.0.qXvX!.W.~.8.7. .6.6.^ } +.5 O ",
"l y y z y k w.OXOXOXS.}.qXqX:XvXcXwXwXU.k.} = x.0 S c.^ $.$.gXVXW.c.m.gXeXkXeX8XBXVXZXC.$X=Xf.yXZ.W.!.!.aXdXx. .W 7.l.8.b.N.e 3 ",
"x N y j k u i.}.9.9.3.e.S.B.V.oXwXGXC.L.J.=.} D ; $.$.%.{ hXgXeX3XdXBXgXx.k.z.z.^ fXC.3.) _ g.L.CXdX-X!.4XeXZ.x.8.8.k.d.m.N.e 5 ",
"9.@X5.d d t D.5.~ 3.q.q.2.! ! _ 3.T C.Z , V 7 = -.. ; $.AXfX;XH.$XsXgX>Xf.#...E ( p.=X&XC.BXtXtXyXaX;Xx.Q.`.X.^ k. . .^ $.' O O ",
"X.aXl.> V : d.F.Z.6.f.K.C.p.3.T ( g.T J.X o = 7 *.< + $.;XkXz.a.X.a.X.| z.H.!.~.J.J. XNXuXcXGX XF.m.j.$.x.a., $ ~ 7.l.8.X.Y 3 @ ",
"3XFX4X| $.; X.sXkX..#.yXjX2X#Xs.) 3._ _ 8.^ , U c.%.z.} $.a./ p.X.k.!.~.dX XS.~.K.U.yXtXcXJ.f.L.G.z.x.j.h.V   s :  .!.z.d.+.7 5 ",
"fXBXeXsXrX!.H `.kXk.z.eXfXbXgXyX X) =XJ.) f.( H ~.a...H.eXd.C BXvXvXbXbXJ.oX~.J.bXyXBXeXG.F.a.7 6 , } sXgX^ C.a.7.7.x.Z.} J D 5 ",
"X.eXBXnX>XSXz.^ dXrX..gXgXfXfXdXbXoXbX0X X&XC.( L..Xa.g.nXfXS.wXCXqXXX:XC.!.!. Xx...V ^ 2XkX3XsX2XQ.m.rXrX..^ H 8.{ } { H q 5 @ ",
"F.dX3XgXeXgXBX..~.BXF.yXgXfXrXfXBXeXbXBXtXbX8X8.K.U.C.p.q.*XtXq.7XXXS.J.d.Z.C.k.8.^ $XSXrXsXAX,X2Xn.I p.d.^ , , < , : ; 0 q @ @ ",
"fXaXnXrXBX,XnXK.X.~.ZX,XjXbXeXgXyXyXwXbXcXBXyXp.8XwX8XoX_ z.MXC.7.D.d.0. . X!.x.yXBXrX;XeXrX3X!._.p., - V ^ : A G.W.h.$.j.@.q q ",
"dXfXSXd.G.gX8XeXz.8.jXfXkXdXdXgXyXBXtXfXyXwXyXf.7.BX0XJ.C.7.S.XX .q.E 7.C.tXdXbXfXCX-XH.Q.~.!.j.z.) B : , a.H d.H.~.x.| | D # O ",
"H.VXa.a.) H.gXBXsXC.Z.VXkXeXBXBXyXBXrXfXyXeXbX=X7.fXbX6X&XoXJ.J.!.8.G J.dXCX9XdXZ.Z.~.~., o n.n.z.p.( C H f.a.~.x.c.$.P e 9 4 9 ",
"a.*X) gX>X..BX9XCX;XG.;XeXyXbXfXwXrXeXyXyXfXBXyXS.C.&X=XV.U.U.0.J.L.7. XtX9Xk.7.z.Z.= . , V H.BX,X~.K.7...8.a...$.} U q @ O @ # ",
"dX..BXaXfXC.gXkXaXeXZX^ $XBXrXrXfXfXfXfXbXbXyXyXyXJ.J.J.U.oXY.MX8.oXx.d.d.C.E , 8.h.8.*XeXfXBX$. Xg.g._ ^ ^ d.I S - 6 6 @ - 7 @ ",
",X>X,XdXfXdXsXgXrXrXBXeXk.a.>XBXrXjXBXyXeXtXyXbX X7.C.*X5X7XMXbXJ...~..XH 8., ) a.H.tX>XBXnX>X~.J._ p._ ..p.- 6 , - # 8 4 { q @ ",
"dXsXdXjXjXdXsXdXBXbX>XeXdXH.a.>XNXfXtXyXBXbX*X XJ.L.=XtXtXcXnXtX8Xd. X!. X: C.yXeX8X$X~.eXdX&X..C.A T < A / , C } h.j.$.= @ + ; ",
"bXgXgXjXjXfXrXfXgXdXdXgXgXfX,XZ.wXtXyXBXnX XC. XJ.=XtXvXbXnXbXtXfXeX7.Z.*XH ..8X XG.d.8X^.k.H.~._ - , : - C 7 / a.$.@.| 7 D C 7 ",
"dXdXfXfXfXfXdXdXrXsXCXgX,XCXHX*Xd.bXnXL.C.=X XK.&XyXfXtXyXfXyXyXnXSXeX .nXz.8.8.x.~.k.;X^ $ ..!.A = : - H / ^ +.j.U 7 S D ^ S o ",
"rXrXdXsXfXfXfXfXyXCXdXrXkXrX,XZX0XV.! z.&XJ.J.cXbXBXjXyXfXyXyXgX~.!.ZX8.{ !.8.V  .eXZ.7.: R G...^ - = C %.j./ C D ; 6 A F S s : ",
"dXgXfXfXfXfXgXdXfXkXfXdXbXgXrXtX5XJ.3.! d.0XMX8XBXfXyXjXfXyX2X%XfX8.eXnX. 9X.XH : ~.C. .) Z. X..C B C I U D 7 8 6 = D J W S F > ",
"fXgXbXdXsXgXfXdXdXrXBXkX9XBXBX!.XXL.U.D.q.J.cXBXcXeXyXfXrXfX2Xs.fX$.H.*XH ( $X: : d.z.q.Z.z._ H - C I I 6 # 9 +.| I X.| 7.Z s * ",
"rXfXdXrXrXfXgXdXdXdXeXdXBX*XZ..XoXL.6X6Xq.d.0XbXbXyXjXfX2XBXrX#.x.BX#.sXz.< .., a p.8.: d.x.T , C 8 6 8 8 8 $.M.D H h.h.8.F W G ",
"yXhXfXyXyXyXfXbXtXCXcXtX XU.U.U. XdXCXfXG.q.$XdX9XVXeXfXrXfXkXsX@.M.5 Y j.= D ^ 8.7.8.8.D.G s F + q } %.n.x.a.h.c.j.@.x.=.D G < ",
"jXfXsXyXfXfXyXcXbXyX&X6Xk.8XS.7XdXZX:XmXbXx.^ .XCXbXgXrX~.,XeXrXhX' Y L + = | $XdX7.s 8.J.! : F $.N.j.%.j.z.G.^.j.} 7 I { U o.F ",
"jXyXyXfXfXbXfXtX=X&XJ.J.&XD.vXtXdXCX0XfXeXfX$X..,X,XdXkX,X`.BXgXhX-.D } 8 ; `.a.x.x.k.( p i 6. Xm.(.m.s.a.a.s.f.$.$.D D , < ^ H ",
"yXyXyXyXbXyXwX*XK.C.L..XL.CX XyXZXqXeXCXbXfXfXp.H.fXrXCXrXX.yXsXgXhX' ; - 7 iXm.J 8. .i % 4.Y.XXH.'.).H.~.H.f.%.d.z.j.J + $ F S ",
"yXcXbXyXyX6X!.C. X.XK.S.BX*XCXL.>XCXZX:XSX,X>Xj.d.rXdXrXsXX.H.kX4XgXgXx.; @.].].$.H : s Q Q 5.A.2X2X%XH._.#XK.F.m.z.s.H : , A a ",
"bXcXcX0X&X~.C.V.d. XyX,X~.jX=XfXl.eXHX,XdXbXSXd.^ z.kXrXkX,X$.rXSXgX3XeX; j.AX4XX.H F R 9.% r 9.=X1X%XH.'._.H.v.H.F.H.^ : < V A ",
"tX0X8XoX!.U.oX=XH K.CXyXrXa.yXVX>Xd. XKXfXaXBXH.#.a.-XBXBXgXn.$.,XgXx.FX-.4XFX@.| ^ J & A.k y u B.*XuX1X1X'._.M.n.F..Xd.Z Z a T ",
"5XoXoXL.S.oXyXGXp.f.wXBXyXn.H.2XCX8Xx.fXeXnX~.......< 3X3XuXSX...XgX$.n.P zX4XQ.$.X.W * }.u r k 3.XXuX=X_._.).'.F.p.F.C.d.f.H a ",
"oXS.Y.oX&X0XmXtXbX7.jXwXZX*XG._ eXkXQ.d.kXBXkX9XkXj.} a 3XrXVX}  .BXX.} D N.FX{.c.J s & P.1.n u u B.=XjX'.(.2X).F.F.p.G.7.p.H A ",
"Y.S.oX0XbXMXbXbX,XZX*XBX*XFXC a.kXdXCX..} *XeXAXkXfXkX- z.AX%Xz.h.dX| h.6 @.4X`.} , p 6.@Xy.N u m 3.6X=Xv.M.'.).v.n.C. XV.d.I 6 ",
"oXU.U.6XMXcXtXnXbXbXBX*XVXH.H H.,XCXrXaXz.G.DX,X`.gXhX^ - H.kX3X, G.k.o ; z.gX{ ^ V E XX@X}.Q % y u Y.Y.v.1X{.{.s.f.G.XXk.f.^ 6 ",
"6XXXD.J.5X6X8XCXbXf.eXZX*X#.s.2XBX2XfXSX3XkXsXBXBXVXuXn.4 o N.rXS } o D < DX,X8.$ > 7..XXXdXoXd k k B.#XH.{.).b.b.f.G. Xk.f.#.8 ",
"cXcX XV.J.XX*XvX X7.fXjXH.p.yXrXuX$X$XsXrXiXQ.3XsXsX3X} 4X%.- sXU 8 ; 6 | eX!.. Z 7.:X:X:X.XZ.& >.z 1.S.H.Q.].&.f.h.!.J.z.h.$.q ",
"cXCX0XS.C.J.U.~.( yXyXyX..BXjXdXaXkXx.4XCXfXrXj.uXrX`.} AXrXD 8 kXlX$.#.= fX0Xk.&  ..X:X,X!.x.6.j l y e.$XM.(.+.} c.S.k.m.$.' e ",
"tXcXcX*XC.d.d.7.7.wXBXC.tXyXCXyXfXX.d.^ F.gX;XF.%.#.- / 4XzXhX} 4XR.4XgX9Xk. X .p !. X X^.-.S 7.l >.x e.^.b.P e | m.Z.7.x.@.P e ",
"cXtXbXyXL...7.( C.K.J.tXCXyXeXCXH.^ W.sXeX3XLX3Xz.7 + C n.VX;XkX-.N.sXfX>X8..XR X  Xk.8.X.m.C C.l l z Q Z.b.L N.| G.x.F c.' e ] ",
"yXNX_.NXuXC.=X8X_.B.=X=XU.cXCXcXbXgXgXsXeXiXkXrXrXI +.- ..BX>XfXz.4XhXz.p.( ( a d.f.f.v.p.%.%.s.2.r x k e.H L %.~.C.C.!.^.%.9 q ",
"rXjXF.jXNX*XuXyXyXJ.J.B.L.6X6XcXeX8XyXCXdX`.j.#.-.lXkXo ..yXrX~.U G.F.d.d._ , Z =XK.F.F.K.%X'.K.p.r l l 9.) +.;.^ 8.d.C.$XQ.+.9 ",
"yXrXs.uXNXuXjXjXcXcX*Xd.f.U.Y.6XCXbXgX>Xz.^ Y $.Q.].rX6 W.eX;XH ..n.I ^ _ V -  X=X=X'.F.H.'.uX2XK.v j z 2.d.:.%.U 8.q.C._.).+.5 ",
"hXuX) uXjXyXcXyXuXGXwXg.C.U.L.U.!.9XyXd.- + 6 #.uXVX} } rXa.rXBXX.z...a.I : a ;XL._.K.v.v.K.1XuX&X2.j z c d.N.@.z.a.7.V.).b.P q ",
"jXjX#.uXyXjXyXfXyXwXC.V.6X0XU.L.S.!.Z.H , , , ..4X#.j.rX} kX3XBX#.U ..E a : ..~._._.F.s.v.%X1X1X&X9.j x y 0.z.&.n.k.0.k.H.-.' Y ",
"yXjX#.hXrXjXyXjXCXC.) &XCXtX0XwXXX( F H a..., $.X.  rX%.fXrX#./ $.A D : : E =X~..X=X_.H.F.K.1X2X Xq.y z u 6.N.-.a.Z.C.d.n.M.$.P ",
"rXhX) jXuXjXrXfXjXp.p.yXBXwXCX6X! a ) G.&Xa.o } z.s.7 BX} f.%.X.6 D ^ ^ ..K.;XG.K.#X*X%XM.v.K.uX_.e.y l c 2.n.M.d.F.C.d.n.m.+.8 ",
"rXjX/ jXrXNXrXyXyX..#.tXtXfXZX) s ^ XX XC.^ V 8XSXX.- ) ..4X+ a.< d.p.....=X*XuX#X_.K.#XK.F.F.K.%XC.y y m ~ n.Q.x.k...p.M.b./ H ",
"sXAX- sXrXsX;XVXF.^ $.dXjXdXH. .V eXyXCX( W , !.BXd.. z.sXuX6 / - : #...z.G.K.%X_.'.H.K._.K.K.s.z.8.w.y y b %Xm.F.$X$XF.j.N.#.6 ",
";Xz.- aXBXDXkXuX..C X.rXgX2Xj., a gXfXdXa A .XbX^.^ : 3XSX$.: / 8.: : : ^ >X_.~.*X1XH.H._.K.%X_.j.8.r.l j d  Xm.Z.;XdX$Xm.$.} H ",
"AX} S Q.,X4XlXQ.- - j.sXgX`.X.= $XBXZX#.: GXIXvXZ.A  Xk...z.H , a a ^ ^ < H.~.2X1X2XK.H.K._.uX1X%.s.i.z j t !.G.G.K..X^.N.#.H V ",
"m.. - $.m.m.G.{ 6 - J $.X.D H } KXsX, - SXPXUXHX7.s  X8.G.dXk.a.A ^ ..d.) ~.%X_._.%X_.K.K.#X1X1X%.j.i.z j u  X!.;XJ.z.H.].Q.#.s ",
"X.; C $.$.h.} $.Y D D $.} - # } #.  FXIXIXHX7...k.tX( ( S.d. .H ..d.^ ..a.p.2XF.H.'.H._._._.*X%X;.s.y.l j u &X$X,X$XW.n.Q.H.a.A ",
"7 , + , = - - $.AX;X4 @ 4 ; 7 iXhX7 FXZXW ..JX0X~ V.6.q.( k.C.a $ 7.8.8..., %X%XH.).H.)._._.*X_.;.%.e.l j n 7X*X~.>X>Xn.} L F V ",
"@ , 6 | } U I $.4XgX7 - q Y 7 hX4X8 / $.CXCXXXBXJ.R bXmX7X.XE : $ ( ) ..s.^ %._.H.'.H._.=X_.=XH.;.s.y.l j u 5X$X$X>X3X%X%.H A F ",
"n.X.} j.$.{ -.} | lX} ' +.N.D AXN.j.} } n.j..XC.d.mXmX! bX0Xp.R R d.d.p.) #.6 Q.F._.H.'.=X=X_.s.;.b.P.x l k XX.XrX^.W.%X].s.H Z "
};
