/* XPM */
static char *tn052[] = {
/* columns rows colors chars-per-pixel */
"64 64 256 2",
"   c #040D00",
".  c #0B0300",
"X  c #0B0C00",
"o  c #051300",
"O  c #0C1400",
"+  c #0A1608",
"@  c #0D1A01",
"#  c #130D00",
"$  c #1B0000",
"%  c #1B0B00",
"&  c #170503",
"*  c #131400",
"=  c #141B03",
"-  c #121B0C",
";  c #1B1402",
":  c #1A130A",
">  c #1B1B04",
",  c #1C1C0A",
"<  c #15150B",
"1  c #171F14",
"2  c #152105",
"3  c #152209",
"4  c #1B2006",
"5  c #1B220B",
"6  c #1C290E",
"7  c #1D2A11",
"8  c #1B2113",
"9  c #1A3115",
"0  c #240200",
"q  c #230B00",
"w  c #2B0300",
"e  c #2A0B00",
"r  c #241304",
"t  c #22110B",
"y  c #211B05",
"u  c #231D0B",
"i  c #2C1205",
"p  c #2D1508",
"a  c #2B1B0B",
"s  c #231C11",
"d  c #291B13",
"f  c #320300",
"g  c #320A02",
"h  c #3C0201",
"j  c #3A0905",
"k  c #3A0E08",
"l  c #321105",
"z  c #351209",
"x  c #321A0A",
"c  c #3B130C",
"v  c #391D11",
"b  c #371C11",
"n  c #232007",
"m  c #23230C",
"M  c #22290E",
"N  c #29230D",
"B  c #242511",
"V  c #242B13",
"C  c #242919",
"Z  c #2A2312",
"A  c #2D251A",
"S  c #2B2B14",
"D  c #2D2C1A",
"F  c #243115",
"G  c #26321A",
"H  c #233819",
"J  c #2B3016",
"K  c #2C321A",
"L  c #2B381E",
"P  c #342313",
"I  c #322B15",
"U  c #342D1A",
"Y  c #3A2415",
"T  c #3B2518",
"R  c #3B2917",
"E  c #3B2C1B",
"W  c #313117",
"Q  c #33331C",
"!  c #33381E",
"~  c #39331D",
"^  c #3A381F",
"/  c #2E3321",
"(  c #2E3B22",
")  c #2E3A2C",
"_  c #352E23",
"`  c #392E21",
"'  c #343421",
"]  c #343B22",
"[  c #363E28",
"{  c #3B3521",
"}  c #3C342A",
"|  c #3A3C24",
" . c #3C3D29",
".. c #2F4129",
"X. c #354126",
"o. c #354329",
"O. c #36482E",
"+. c #3B4126",
"@. c #3C422A",
"#. c #3A492C",
"$. c #3B4132",
"%. c #3E4A31",
"&. c #395033",
"*. c #400203",
"=. c #400A08",
"-. c #451B14",
";. c #45251A",
":. c #412C1B",
">. c #492B1F",
",. c #462219",
"<. c #44311E",
"1. c #442D20",
"2. c #4C2C22",
"3. c #433423",
"4. c #413B25",
"5. c #423D29",
"6. c #4A362B",
"7. c #483D27",
"8. c #4A3B2A",
"9. c #493224",
"0. c #453E31",
"q. c #4E3D30",
"w. c #542923",
"e. c #503123",
"r. c #53352A",
"t. c #533A2C",
"y. c #5A332B",
"u. c #58382B",
"i. c #513E30",
"p. c #5F3A31",
"a. c #6A3F38",
"s. c #434026",
"d. c #43432C",
"f. c #43492E",
"g. c #4A432D",
"h. c #4B492E",
"j. c #434530",
"k. c #444A32",
"l. c #474F38",
"z. c #4B4531",
"x. c #4B4B34",
"c. c #4B4E38",
"v. c #455234",
"b. c #44533A",
"n. c #4A5136",
"m. c #4C523A",
"M. c #4B5A3B",
"N. c #44593A",
"B. c #52412E",
"V. c #524433",
"C. c #524B35",
"Z. c #534C39",
"A. c #5D4234",
"S. c #594B36",
"D. c #5B4D3A",
"F. c #50463A",
"G. c #535036",
"H. c #53533B",
"J. c #53593D",
"K. c #5A523C",
"L. c #5A5B3E",
"P. c #56603E",
"I. c #5A613F",
"U. c #624C3C",
"Y. c #6A463E",
"T. c #62533E",
"R. c #60593F",
"E. c #4B5543",
"W. c #485A44",
"Q. c #5F4F40",
"!. c #545541",
"~. c #545A41",
"^. c #5B5541",
"/. c #5B5B43",
"(. c #5B5E4A",
"). c #4D6543",
"_. c #556044",
"`. c #5B6244",
"'. c #5D634A",
"]. c #5F6947",
"[. c #5E6A4B",
"{. c #654E40",
"}. c #635541",
"|. c #625B44",
" X c #635E49",
".X c #685544",
"XX c #685B46",
"oX c #6A5C4A",
"OX c #745549",
"+X c #785C51",
"@X c #626246",
"#X c #63634B",
"$X c #636A4C",
"%X c #6A624B",
"&X c #6A6B4D",
"*X c #646650",
"=X c #646B52",
"-X c #6C6652",
";X c #6B6B53",
":X c #6B6E58",
">X c #65704E",
",X c #667055",
"<X c #677158",
"1X c #6B7155",
"2X c #6D735A",
"3X c #6B785C",
"4X c #71654F",
"5X c #736553",
"6X c #706758",
"7X c #726B54",
"8X c #746D59",
"9X c #796E59",
"0X c #7A6154",
"qX c #707055",
"wX c #73745B",
"eX c #73795E",
"rX c #7A745C",
"tX c #7A795E",
"yX c #757660",
"uX c #757A61",
"iX c #7B7660",
"pX c #7B7B62",
"aX c #7A7F68",
"sX c #738064",
"dX c #7B8065",
"fX c #7D8369",
"gX c #7F896E",
"hX c #7E8C70",
"jX c #825D57",
"kX c #806F5D",
"lX c #81735E",
"zX c #827562",
"xX c #817B64",
"cX c #847E68",
"vX c #887D67",
"bX c #8B7C69",
"nX c #818066",
"mX c #83836B",
"MX c #83886F",
"NX c #8A846C",
"BX c #8B896E",
"VX c #868971",
"CX c #8B8670",
"ZX c #8B8A72",
"AX c #848670",
"SX c #8A9076",
"DX c #8C917A",
"FX c #91806E",
"GX c #918972",
"HX c #94917A",
"JX c #99937D",
"KX c #979981",
"LX c #9B9881",
"PX c #A8A28C",
"IX c #B1AC96",
"UX c #B7B19B",
/* pixels */
"*.h h f r.1.U C O @ @ @ - S K , , +.K 6 ! K M | K Q ] Q '  .Q S | ! S S Q  .I Q ^ S | ! Q +.F F 9 &.9 ..) L C L / / D _ , s _ A ",
"*.h h w 2.1.6. .[ C , 6 K K m * 4 | _.+.+.Q k.f.f.x.x.k.f.k.f.d.d.k.Q c.L x.| l.f.| f.[ ! k.f.k.b.O.L 3 ) %.[ ' ' / c._ } < ' 0.",
"*.*.h f c p T z.U Z ; Z z.z. .x.V ! 2XJ.k.n.fX=XwX1X$X;X:XeXeXuX=X;X$X'./.!.dX;X@.m.1X:X1XeX].c.:Xc.'.B z.-Xz.F.!._ 0.Z E._ A } ",
"h h j f w $ e T V.D.} ~ 8.E d 4.! Q m.f.+.n.dX1XMX:X$X:XfXfXwX=X'.dXK.3X[ ;XBX1X(./.'.~.~.=X=X~.D.x.6Xz.Z.oXz.F.6X_ A d _ F.A A ",
"=.f f j f k g e e T T T z.i.6.Q.x.k.@.f.! f.m.=X3X=X#X<XwX=X~.f.l.m.n.x.m.f.dXJ.aXwX#X`.'.wXpX=X5.Z.}. XZ.Z.F.H.!.u } B . } j.5.",
"e.=.w k -.y.-.0 0 e i b i.V.6.8.x.`.l./.f.l.@.1XK.$X3XuX<X=X_.M.s.d.M '. .G.m.H.J.~./.:XwX=X/.{ ^. Xd./.5.} x.o.' * $.< X C (.!.",
"e.v w c c a.y.f g 0 0 z T 3.4.8.d.c.#.J.l.x.f.'.[ M.].$X=X1X[.~.H.f. .! ] ] k.f.H.J.J.wX3X#X/.@.!.M.K [ K F [ @ 8 @ V   C C E.E.",
"r p q e w p.Y.y.2.g q e q % U Z.L.c.d.k.G.`.J.l.@.l.m.M.[.3X=Xk.1XdXJ.J 2 n.l.n.[ f.f.'.'.z.H.d.@.o.) ( O...%.o @ V O O C 1 d 0.",
"; R 3.q q i u.OX2.2.x q r # # W [ d.m S | J d.@.K V ! H.3XeX`.#.eX;Xm.k.@.f.$X3XM.X.k.S | 5.K.wX3XhX3XuXW.L ( @ @ * ; X d P q.3.",
"> W 4.N <.<.A.U.r.t.<.8.%X^.^ I ~ d.C.aXpXd.| m.f.! M K ! X.( ' `.m.J.[._.,XgX,X1X@.] Q /.wXpXcXuXgX3XfXfX3X-X] * Z r i q 2.{.jX",
"4 ! d.W | ~ 3.<.E T.D.C.8X:XH.c.K.-X8XxXxX XH.!.#XeXeXuXk.] ] /.! c.k./.3X,X,X3X~.X.+.k.rXBXzX7XpXpXzXxXpXcX9XA.P b e z w j f h ",
"4 +.H.| | I W ^ C.cXrXZ././.x.L./.oX^.|.wXxXxXrX;XpXpXMXm.m.J.MXpX@.K @.F ..[.>X6 V @./.8XpXzXzXlXlXbX9X.X.X.XoXY.;.c 0 j h *.h ",
"M +.n.d.h.+.h.x.K.xXqXL.;XtX&X%X5.P Z g.|.S.4.g.c.G.h.wX1XmX;XwXeX2Xd.+.k.( 6 3 ! %.l.L. X-XtXbXU.A.U.U.8.<.t.T..X1.;.0 g w f h ",
"n J +.! n.d.s.| +.L.J.h.#XpXpXrXzX5X5XXX}.V.U { ~ 5.g.eXpXmX/.c.fXMXeX#.o 2 X.o 6 M > S ~ 5.3.R ;.x x :.E R ~ R E y p R 6.+Xt.u.",
"n N ^ Q h.! M > K +.h.f.s.C.L.}.iXvXbXoX}.oXK./.g.Z.x.x.4.d. . .d.pX3X@.6 6 L 6 o 2 @ L 4.V.8.P <.B.B.S.s.4.J.k.@.- X =  .yXF.' ",
"> W G.x.J.^ M > = 4 | x.h.Z.L.Z.S.{.iXcXbXrXD.%X^.%X-XK.z.d.g.4.g.f.@. .! +.m.X.= ] S | N I ~ R <.lXvXqXd.+.aXdX( 3 o.) 2XSX*Xj.",
"2 V ( ~.%.k.] ' G.5.wXNX| > M > f.G.H.1XfXdXxXK.^. XG.9XzXvXlXxX^ g.mXG.Q L.&X^ W s.N K.C.N %XrXlXnXnXwXd.c.pXm.+.c.mXpXaXeXmXyX",
"3 3 V [ K ] ' U S ~ -XpXx.x.eXtX1XfX<Xj.M S K.H.cXC. XrX.XiXzXzX7.tXtXh.L.rX@Xn W G.K.tXtX|.lXtXtXtXpXtX[ pXrXs.l.ZX-X&XDX;X| fX",
"o @ 3 2 , , B * > S d.d.Q n.eXeXMXsXeXdX`.] f.c.D.Z.4.|.V..XrX8.7XxXC.S.%X%XK.I K.rXlXnXxXtXnXtXpXpXxXwX~.NXG.| wXpXNX8XBXaX4.mX",
"9 H %.@.l.k.c.D m N m ; n d.L.H.1X3XeX2XuXmXpXK.G.C.g.} z.5X1.g.lXK.4.%Xh.C.K.7.lXnXnXrXrXtXtXtXxXaXpX;XCX/.Q ~.mX&XfXeXyXmXcXeX",
"o 2 ( [ b.m.~. . .Q m > N ^ f.s.].J.~.`.=XaXmXrXrXcX5.8.8.P 3.Q.R.B.K.%XS.%XC.s.tXrXnXtXtXmXtXdXpXeXtXpXfX| Z.pX1XNXf./.8X;XfXeX",
"@ 3 K ] @.m.!.c.h.s.^ Q ! +.n.L.c.@ = j.~.c.H.pXtXtXcXZ.y z.C.XXK.K.T.R.rX9X^ @XnXqXtXlXnXdXqXnXaXtXaXZXZ.h.pXpXuX XQ Z.c.pXz.BX",
"6 3 5 C 7 '  .@. .! ^ s.s.L.wXtXc.S M ; m d.z.d.z.xXrX Xg.8XzXD.oX|.S.T.rXK.h.nXmXlXwXtXwXqXeXtXfXpXrX-Xc.-XBXwXfXW $X%Xf.rXc.wX",
"3 @ @ 7 @ 7 S ' k.! W S W x./.h.fX:X3XK.k.m.~ m ~ C.4.z.9XxXz.D.S.%XR.T.S.s.9XrXtXmXtXnXmXtXmXwXiXwX-XK tXfXeXpXwX/.aXpXrX .xX| ",
"- 7 = 5 o - = , > ! Q Q I Q G.G.pXaXpXwXdXH.d.| ; d.g.8XXX5.~ XXlXvXtX%XS.h.K. XtXnXrXrXnXtXtXdXtXx.| $XNXtXwXAXpXpXpXtXwX;X#X X",
"5 5 3 [ @.l.] D 4 ! J m > N C.L.h.uXpXH.K.8XmXrX4.y pX^./.E -X9XlXtXlX9XXXR.K.K.@X@XNXpXqXnXrX&X' K.pXZXmXpXwXtXxXaXaXxXpXtXyXwX",
"O - V @.[ @.X.j.= M m > ; > 4.h./.c.H.;X'.x.H.pX{ g.g.%XS /.rXiXtXxXvXtXrX7X@XK.K.|./.lXnXrXxXC.8XpXpX8X:XNXAXyXpXpXpXaXaXpXpXaX",
"] K 5 5 K %.@.L ! ! S > > n ~ s.h.S K K./.K.| z.C.K. Xm bX9XCXpXtXxXnXpXtXrXrX&XR.@XK.g.tXrX7.rXmXfXfXaXyXwXyXpXpXpXpXpXpXpXtXpX",
"[ j.[ 3 - K ' V l.f. .S y n E C.d.~ Z ^ h.-Xg.Q z.C.E U rXmXZ.iXqXtXnXpXtXpXxXtXlX@XK.XXS R bX%XpXwXtXNXmXyXwXpXpXpXpXpXpXpXpXpX",
"O k.<X$.3 = K L 6 J d.| N n N s. Xd.| h./.Z.> Q K.H.y wXxXC.rXwX$XwXtXtXtXpXnXlXmXlX&XI P S.S.9XcXpXwX:XpXcXmXpXpXyXpXpXpXpXpXpX",
", [ #X~.~.%.%.o.4 = J W W N y I { x.K.W K.K.> m  .^ ; mX XS xXg.qXeXdXsXtXtXtXtXlXqX4.B.XXR.XXT.^.eXZXZXpXyXyXpXpXyXpXpXpXpXpXpX",
"= C H.!.(.@.m.M.].! V M W ^ y y I z.C.> c.H.; 4 Q > x.rX| tXH.| fXfXdXtXeXtXnXpXeX<.7.9XvX4XK.}. X^. XwXcXcXiXpXpXpXpXpXpXpXpXpX",
"3 0.!.!.K.x.H.&XeXJ.`.M.@.# u u a E F./.K.k.S K @ V @.@.; c.} AXdXfXuXfX:XmXuXpX^.d.H.mX8XxXcXK.XX}.}.S.zXpXNXtXrXlXnXtXtXdXsXtX",
"8 [ x.H.#X XK. XwXH.n._.c.Z : ; % 1..XV.3.z.j.c.k.X = @ b.| aX:XwX&X~.dXeXwXZX/.] H.mX%XZXaXrXwX}.%X}.7XXX%X%XNXtXdXdXtXwXtXsXtX",
"@ o.E.^./.^.|.&X$Xf.C K S > * U q.q % E z.z.{ c.m.B O @.= j.yXVXVX`.#XfXuX1XuX' c.MX*XAXxXpXwXGXzX9XZ.C.h.oX%XtXtXtXlXtXtXtXtXtX",
"7 $.~.!.G.^.&XwXL.M.o.k.c.c.D 3.i.Y x q u Z { c.:X6 5 C ' :XyXuXeX+.uXaXfXdXH.@.mX;XZXwXeXmXwXiXG.rXBX%X%XL.|.K.7XrXtXnXlXnXnXlX",
"( O.l.c.J.@X&X'.J.M.f.k.!.;X} 5.+X>.e % r P | !.mXC V V fXVXAXyXn.@.dX:XfX;X] d.=XmXpXyXaXwXAXx.rXpXlXL.&X|.@XS.R.%X7XtXnXxXlXnX",
"L o.E.!.H./. Xn.`.$X3X~.c.[.^.5X+X,.z v a ; E aXyX*X5 uXaXpX2XaXf.wXuXaXpXk. .k.pXfXpXcXwXpXg.pXNX&XG.pXBXpXg.^ G.K.R.7XqXrXtXxX",
"7 o.`.(.n.J.].P.! X.3X_.d.} 6.oXU.-.0 $ b V.V.c.VXyXK wX=X3X:Xc.c.fXwXdX#X| H.J.fXpXpXwXcXd.%XCX&X$X#XmX&Xh.5.rX|.L.T.R.oX4X9XlX",
"( X.b.J.G.$X1XP.P.F v.X.@.5.c.5Xu.g 0 i v P ` (.pX=Xc.~.D aX:X] eXdXdX;XK J Q  .K.*XBXeX .wXZX;Xd.G.pXfXeX| h.tXrX%XT.K.T.R.9XlX",
"F ( @.| n.].`.$X].v.N.X.^ $XoXD.e z 0 e a r Z.pXwX~.D [ [ pXj.] dXwXfXO k.k.uXpXpXuXyXd.#XwXCX' +.MXqXsXnX^ tXtXtXzXvXR.T.T.oXT.",
"7 ( f.l.@XeX>X1XP.M.v.f.h.@X X9.e w g T v % } /.aXj.O j.] aXK d.fXMX .> wXMXwXpXaXpX4.[ uXCX$Xz.! dXBXwXdXnXtXmXxXrXlXlX4XT.S..X",
"3 K v.m.$XqX@X$XP.].n.M.L.K.U.p e e >.A.t.; P } mXc.O 6 $.J., ;X$XJ., f.2XuXpXaXpXc.x.pXaXNXyXd.! H.BXwXtXmXnXtX7XGXbX9XS.%XT.U.",
"C @.~.'.1XeXI.I.].>XP.G.S.K.t.e w q A.0XoXa N J =XDXX , * o.O DXc.> @ | fXuXNX:XwXpXpXtXZX;XtXNXn.J 1XmXqXh.lXqXxXrX%X%XT.T.R.4X",
"K f.@X@X&XqXI.I.I.].].G.D.T.:.l 0 p {.kX8XU , B c.DXO.* > = j.2X= d.=X .pX2XwXNXJ.pXNX:XwX/.wXpXwXs.L.mXrXh.K.nXlX@XS.C.R.T.4XlX",
"F @.`.L.@X&XI.I.@XI.>XL.T.S.i q e v .XzX9X8.* 6 uX$X@ @.j.fXyX* f.;XfX+.m.MX$X@.eXaXwXfXc.tXZX8XnXqXG.&XrXmXN tX/.K.K.g.%X9XFXrX",
"S f.@X@XI.@XI.&XI.I.I.@X|.<.0 0 i 8..XiX8X^.# C '.%.=X2X:X!.yXj.=XdXpXc.O | /.f.pXDXg.| ~ G.^.NXpXNX@X@XqXNXW S.L.^ B.7XBX9X9XBX",
"M s.R.G.G.G.B.I.n.P.h.R.T.,.z g % z.^.8X8X$X# K (.$.:XaXfXc.@.uXaXxXf.m = ; n.fXuXuXwXuXH.[ #XeXtXxXpXtX4XG.@XN ^ s.C.rXtXBXrXtX",
"n S h.f.^.V.7.#Xn.H m.|.A.g w z { c.c.H.:X*X' ; S B | /.pXyXd.uXaXnX^ 4 +.] 1XfXeXgXdXwXuXcXpXiXrXlXqX%XS.G.&XG.G.L.@XBXI.nXnXsX",
"S N #.] S.V.B. X#.H m.C.2.f w q j.'.H.[ z.*X!.U 5.~ U ' x.(.' !.-XHXS , eXeXv.] j.].eXdXNXiXeXxXtXkXR.G.L.@XlXnXqXnXdXnXG.sXsXG.",
"N M ! K Z.D.{. Xv.&.$XF.;.k j p (.~.!.m.c.c.c.g.. ; L g. .f.B d.K.eX/.m 1XpX~.L K ' c.=XfXpXwXxXR.G.B.s.R.9XqXnXnXBXdX>Xs.sXqXs.",
"; 4 ! K F.Z.Q.Z.m.N.'.j.z f f x yX~.'.:Xm. .} 4.m # m 5.~ [ j.AXfX] dXF j.MX,Xk.M 2 , d.8XpX7X#XK.T.R.G.4XBXnXnX&XnXsX&X+.nXsX^ ",
"; u / 8 _ ` q.{ ~.E.J.5.l w w r.:X*X$X!.[ 5.d.] { > * { { @. .*XeXfXd.dX] Q dX] = > , J G. XK.C.R.@X%Xs.g.qXqXwXtXtXdXsXs.dXsX+.",
": : 1 - s d 6.` E.l.j.6.l w k XX!.c.l.k.@.[ 5.} j.{ > > > D Q c.| pXwX@.uX= M f.= Q d.^ I U z.7XlXnXBXR.g.@XdXnXnXdXtXnX+.sXdXh.",
": : < - < # } d @.@.] E w w e .Xx.] ] c.K.@. .j.U x. .c.c. .m ' [ f.L aX* c.].S 4 d.^.C.I y 3.8XrXtXNXqXs.g.eXqXdXqXsXsX^ qXsX^ ",
"d : - - < . d . $.k.8.:.e g g T.Z.!.f.[ !.'.c.k.x.x.D Z. X5.,  .4 1X@.| 4 ' fXeX; Q K.%XH.I u d.lXsXdXdXs.! dXdXsXsXdXdX+.dXsXH ",
"& A 1 + + # : %  .c./.i g e e.D.j.J.c.c.<X:XeXj.j.*X#Xj.{ m u | > ZXyXK S @.BX^.;  .s.S.cXfXy 4.c.pX:XfX@.| ~.eXnXqXsXdX= MXgXL ",
"t } ) ) C d } _ D ' 8.q w w r.D.c.(.x.!.#X2X:Xx.c.c.{ u V u Z | * W pXwX* Q  XrXxXy I pXcXpX; * | gXmXuX| , L 2XBXnXdX1X@ J.>X2 ",
"t } E.W./ A F.0._ u E 0 f g U.}.Z.(.j.!.!.:X[.k.L S V S U B y > d.d.~ DXK.u ;X%XzXHX# z.8XwXZX> L ;X:X;Xc.= , '.sXsXsXP.5 o.3XV ",
"t } E.W./ D ^.Z. .Z P q g g T.^.x.c. .c.m.*XE. .@.' { [ ~ S U 4.^ pXpXW H.I u JXUXPXLX> > pXwXL 5 L [ k.o.@ @ [ N.P.v.! O = m.= ",
"p ` k.N.K '  X}.x.E T e g w }.Z.g.] d.@.~.m.f.C K S ] j.| S U } z.u 7Xy I rX{ 3.4.cXIXLXJX= J o.= 5 [ K 3 F o.] X.k.[ +.= = [ = ",
"T } k.N.O.@.*X X^.z.1.e g w D.z.x.5.H.k./.c.X.C 4 B L j.h.U y # z.^.y 4.8.I g.cXcX~ x.BXVX4 SX=X= 6 K @ @ <XfX%.  5 @ C @ O = @ ",
"R g.&.W.b.m. XXXD.}.r.e k 0 D.Z.C.j./.c.k.@.K ] [ d.| } j.} Z N ~ }.D.CXvX8.<.rXpXrXeXn.X.@ 3XgX6 7 3 @ 3 fX3Xo.V ] L ] 7 5 5 ] ",
"R z.n.).].~./.|.c.XXt.w k 0 S.Z. .@.c.k.C ' 6 +.= ]  .d.m.g.P U g.cXcXE 5XvXD.K.S.^.K.Q @.+.M.3Xo.%.[ O.o.3Xj.#.' O.%.[ [ ] l.AX"
};
