/* XPM */
static char *tn170[] = {
/* columns rows colors chars-per-pixel */
"62 36 256 2",
"   c #070803",
".  c #070915",
"X  c #071606",
"o  c #011B13",
"O  c #021918",
"+  c #150A01",
"@  c #1A0200",
"#  c #1B0A00",
"$  c #150705",
"%  c #121201",
"&  c #141A02",
"*  c #1A1301",
"=  c #1D1903",
"-  c #1B1A0A",
";  c #16140C",
":  c #181617",
">  c #1A0F15",
",  c #021C27",
"<  c #001B33",
"1  c #181823",
"2  c #000D24",
"3  c #09210D",
"4  c #042419",
"5  c #172306",
"6  c #162418",
"7  c #01242A",
"8  c #002C2B",
"9  c #052623",
"0  c #002B33",
"q  c #032939",
"w  c #00322C",
"e  c #04302B",
"r  c #003439",
"t  c #00393A",
"y  c #033433",
"u  c #172C2B",
"i  c #230300",
"p  c #220B00",
"a  c #2A0D00",
"s  c #2B0400",
"d  c #241300",
"f  c #241A00",
"g  c #2A1400",
"h  c #2C1B00",
"j  c #27160B",
"k  c #251916",
"l  c #320D00",
"z  c #340500",
"x  c #331200",
"c  c #331B01",
"v  c #3A1B00",
"b  c #391403",
"n  c #2B091D",
"m  c #271A25",
"M  c #311C27",
"N  c #282601",
"B  c #262416",
"V  c #332300",
"C  c #3A2300",
"Z  c #382802",
"A  c #392614",
"S  c #393503",
"D  c #262525",
"F  c #27372C",
"G  c #2A2332",
"H  c #022E45",
"J  c #003743",
"K  c #173644",
"L  c #00423E",
"P  c #004346",
"I  c #004B52",
"U  c #461800",
"Y  c #422101",
"T  c #4D2600",
"R  c #453303",
"E  c #473711",
"W  c #552906",
"Q  c #59360A",
"!  c #553816",
"~  c #4B2C14",
"^  c #4C3625",
"/  c #593A24",
"(  c #662600",
")  c #653701",
"_  c #763600",
"`  c #673115",
"'  c #633F27",
"]  c #5B460F",
"[  c #5D4425",
"{  c #564C34",
"}  c #58612A",
"|  c #634805",
" . c #66491A",
".. c #695514",
"X. c #784000",
"o. c #784519",
"O. c #75540C",
"+. c #674729",
"@. c #684C36",
"#. c #6D5334",
"$. c #78562B",
"%. c #765935",
"&. c #6E4D2A",
"*. c #6F6A14",
"=. c #756525",
"-. c #7B643C",
";. c #755742",
":. c #14DDE3",
">. c #08E6D9",
",. c #02EAEB",
"<. c #04ECF3",
"1. c #00F3EC",
"2. c #06F6E9",
"3. c #00F4F4",
"4. c #00F4FB",
"5. c #01FDF5",
"6. c #01FEFD",
"7. c #0AFCFE",
"8. c #0AF5F9",
"9. c #18E8E8",
"0. c #1BEAF6",
"q. c #12F5FE",
"w. c #12FDFE",
"e. c #1AFEFE",
"r. c #17F7F4",
"t. c #39DADA",
"y. c #31DCE7",
"u. c #34E0DE",
"i. c #26E9E7",
"p. c #25ECF3",
"a. c #25F5E8",
"s. c #26FBFA",
"d. c #35F9FB",
"f. c #3AE5E8",
"g. c #78BCBF",
"h. c #6ABFD3",
"j. c #43D7D9",
"k. c #4DD3D7",
"l. c #48DAE3",
"z. c #56DCE4",
"x. c #49E6DA",
"c. c #49E6E7",
"v. c #58ECEC",
"b. c #54ECF3",
"n. c #53F5F9",
"m. c #50F0EB",
"M. c #70D2D1",
"N. c #61E6EB",
"B. c #894706",
"V. c #8D591A",
"C. c #97561B",
"Z. c #88530F",
"A. c #8A5822",
"S. c #895A34",
"D. c #975C2F",
"F. c #846105",
"G. c #996805",
"H. c #996718",
"J. c #9C7A17",
"K. c #866917",
"L. c #87683B",
"P. c #977A36",
"I. c #906528",
"U. c #A45600",
"Y. c #A4791C",
"T. c #B37502",
"R. c #AC7114",
"E. c #A77725",
"W. c #B27729",
"Q. c #AB6F30",
"!. c #977747",
"~. c #936E4D",
"^. c #A77E40",
"/. c #C77A0F",
"(. c #C07829",
"). c #9E8B15",
"_. c #A18315",
"`. c #B69818",
"'. c #B28B0E",
"]. c #A8843A",
"[. c #A79328",
"{. c #B58235",
"}. c #B89829",
"|. c #B79639",
" X c #A98D2D",
".X c #B5A328",
"XX c #BAA439",
"oX c #A9A124",
"OX c #9A8356",
"+X c #999953",
"@X c #9A854A",
"#X c #A88A59",
"$X c #A89649",
"%X c #AA965A",
"&X c #B89847",
"*X c #B59B55",
"=X c #B18944",
"-X c #B19965",
";X c #BAA746",
":X c #B9A454",
">X c #BFB05F",
",X c #B0AA4E",
"<X c #B7A663",
"1X c #B7A772",
"2X c #BEB36B",
"3X c #C0851F",
"4X c #C59928",
"5X c #C59638",
"6X c #C48936",
"7X c #C9A429",
"8X c #CAA738",
"9X c #C9B43A",
"0X c #D8AE27",
"qX c #D5AA39",
"wX c #D7B939",
"eX c #D3B72D",
"rX c #E0B939",
"tX c #E4BB2F",
"yX c #C29B47",
"uX c #CE9B53",
"iX c #C39C65",
"pX c #C6A846",
"aX c #C6A655",
"sX c #C9B548",
"dX c #C9B458",
"fX c #D6AB44",
"gX c #D6B947",
"hX c #D8B857",
"jX c #C7A868",
"kX c #C7B469",
"lX c #C5B978",
"zX c #D6B964",
"xX c #D5B876",
"cX c #CCAF73",
"vX c #E2BA48",
"bX c #E3B957",
"nX c #E2AC46",
"mX c #E2B768",
"MX c #CDC435",
"NX c #EBC73D",
"BX c #DAC348",
"VX c #DAC455",
"CX c #C6C841",
"ZX c #D6C167",
"AX c #D9C275",
"SX c #C7C360",
"DX c #E5C354",
"FX c #EDCE4E",
"GX c #E4C46A",
"HX c #ECC870",
"JX c #88AEB1",
"KX c #87CECE",
"LX c #CAB488",
"PX c #E5BA90",
"IX c #FFD880",
"UX c #D6C692",
/* pixels */
"M.4 4 + M :   9 & & : : O 1 > : : X B % : M   j : : 1 G   5 k ; - : 1 : : ; > 1 1 > B % m : % - X 3 3 3 3 ; : - $ m m 1 9 JX",
"8 o D > j k B - = = = j - k j j > D % % ; $ k j B : 1 1 = j p j * - : > f B k : > > B * k k = * - - - = - & * = A ; $ m O e ",
". D : > k # U z l d = f x x l a ; k # h A s c p + # k # p g s ~ N # d j d + @ j a j p p a j b a g b z l g d d g x g % 6 O 4 ",
"n M . > ^ ` ` A.o. . ...o.o.o.@.@.@.[  .+.' / +.%.+.+.#.@.@.&.Q [ @.+.[ [ #.;.@.' ;.+.#.@.+.+.+.o.' o.o. .o.&.+.~ / B X 4 9 ",
"n G 1 : ^ S.C.C.C.V.Z.V.F.F.V.S.i c g x Q $.' U g d R %.a s L.Q x a v #.+.s a i ! #.g i b s ~ S.D.C.C.C.V.C.A.A.$.! = X 6 o ",
"G . 1 ; ~ D.Q.Q.W.W.'.R.Y.J. XP.b p OXg U !.@ g !.V f OXb b !.x V L.@X~.p C ~.c b %.b Y ~.b T !.(.R.E.E.W.W.Q.Q.$.R & X o 8 ",
"h.H 8 B ~ Q V.E.4X4X7X7X}.}..X;Xh # V h $.%X! @ %XN * -Xj a %X=.f V =.1Xd # 1X@ g -.g h %Xg x %X5X4X4X4XqX6X6X^.Q N B o t h.",
"c.J o o % a L.P.5XtXrXwXsX9X9XsXh d LX2X2X%X@ V lXN f lXA h -XxXLXf f lXV $ UXg g -.d g lX* d %XCXwXwXrXnXyX^.P.N % 4 4 t M.",
"q.i.L o 6 % c P.5XvXwXwXgXBX).VX* V kXzX;X$X$.x N f *.SXf A $Xc d V *.lX=.h f N =.*.C g >XZ c $XCXMXMXtXvX|.@Xf 5 3 9 r l.d.",
"4.r.c.w w D d v &XhXgXVX9XgX7XwX:X:XZXsX[.pXAX*XSXVX;XAXLXLX:XdXZXxXzX,XAXxXxXdXdXK.*XkXAX;XzX;X9XMXeXvXhX:X% N 3 w 7 v.:.e.",
"6.7.r.m.0 O B # v *XxXsXFXqX4XvXyXhXnXwX`.4XmX|.fXgXVXzXxXxX|.bXhXaXhXhXAXpXfXDXgXF.yXbX9XgXDX}.gXMXDXpX&XZ X 3 w 9 b.p.e.4.",
"6.6.3.q.z.7 6 k % + 1XdXhXvX4XnX4XBXtXFX7X7XfX6XgX8XhX Xz U T l l Q Y.zXhXhXbXqXvXG.4XwXvXrXqXeXDXsXhX:XN   F . t b.9.8.7.6.",
"5.6.e.,.p.v.0 O 9 B X <XhXnXfXqX4XeX0XtX3X4XwXfXDXGXK.W U O.W.E.H.T z E.bXfXbXgXvXO.7XtXrXqXtX3XnXmX$X5 5 6 O I t.9.e.7.4.7.",
"1.w.3.w.q.i.z.J , O 5 + iXbX|.VX7XwXMXNX5X8XbX|.pXxXC U =X&XaXGX&X].) T hXhXbXhXgXF.7XwXvXgXFX}.mXiXN   4 w 0 k.d.e.4.4.7.7.",
"6.3.7.3.w.7.,.f.I 4 X V a $XpX9X.XMX0XeX|.|.hX| Y ] # #.<X*XcXxX-X#X$.@ | C | AXdX_..X8XVXdXBXXX*Xg * 6 4 8 c.d.<.7.6.6.7.1.",
"6.6.5.6.4.6.7.q.t.y 9 * g f ,XdX[.FX9XgX8X|.ZXd a C c %.R d C a l ! -.c V c c dXdX[.oXVXVXdXdX$Xg - 6 O P t.d.<.7.4.6.w.4.5.",
"5.5.6.7.6.6.6.8.s.t.r O m @ N %X;XdXgXBX.X7X9X Xa &.C %.g V |  .U U S.a ..v J.VX9X).XXdXHXdX$Xc j 1 7 t u.s.,.w.6.6.7.7.7.7.",
"5.5.7.6.6.6.6.7.q.p.z.7 7 1 > Z =XIXpXgX`.oXMXsXkXi ! N [ OXjXPX~.@.z  .g  XgXwXgX'.}.dXkX%Xx p , H 0 v.>.7.7.4.6.6.4.8.7.7.",
"5.6.6.6.6.4.4.7.8.r.a.m.w O 1 i C =XDXBXoX.XbXbXpXjXN N * ! -X~.@.* v l *XDXgXDXbX}.XXSX+XS p j 7 , v.f.s.2.7.6.6.6.7.7.8.7.",
"5.6.6.6.7.7.q.q.6.8.2.a.x.w 7 D @ v |.BXXX}.hXbXmX:X} & = x b z = j g %.aXsXhXqXqXpXoX,X5 X - O t v.u.i.e.1.5.7.6.6.4.7.7.6.",
"6.6.6.6.7.q.q.q.7.5.e.>.a.m.0 O B V & +XXX8XfXzX$X*.N S f #.L.!.{ & S V K.yXbX8XbX[.$XN X o y r t.9.s.r.1.7.6.5.7.4.7.7.6.6.",
"6.6.6.6.6.7.q.q.3.w.2.7.2.i.k.J 4 X 5 % yX5XbXXXN N f c h i x V N 5 = N i U 4X}.hX:XS   F w r t.s.w.2.1.w.w.,.7.7.6.6.6.6.6.",
"6.6.6.6.6.6.6.6.6.5.6.1.w.r.:.f.P 8 4 * U yX{.|.% S g *X{.O.@ N &...aX:Xb U |.zX|.c @ D o t t.s.1.6.6.5.7.1.w.7.5.6.6.6.6.6.",
"6.6.7.6.6.6.6.6.6.6.5.7.8.w.w.0.y.P 7 k i b :X|.;X&XuX=XuX|.aX$X=XzX|.|.yX*X*X*XN # k , y j.s.5.6.6.6.7.3.6.1.w.6.6.6.6.6.6.",
"6.7.7.7.6.6.6.6.6.6.q.q.q.8.7.7.e.y.r o k + N $XE.|.W.uXW.J.|.Y.qX(.6X6X|.*X1Xp j k 7 r l.d.,.7.6.6.6.6.6.6.8.6.5.5.6.6.6.6.",
"6.6.6.6.6.6.6.6.6.7.q.q.q.7.4.6.4.0.z.8 4 6 & V iXuX(.R.W.E.J.'.T./.(.U.].@X+ D 1 q , v.:.w.7.5.6.6.6.6.7.7.6.6.6.6.6.6.6.6.",
"6.6.6.6.6.6.6.6.6.6.7.8.7.4.7.6.6.q.0.m.w o 6 + v o.W.B.Q.Y.G.T.U./.G.E.| g k . H < b.a.w.4.7.5.7.7.4.8.7.6.6.5.6.6.6.6.6.6.",
"6.6.6.6.6.6.6.6.6.6.6.7.6.6.6.6.7.4.4.s.x.9 9 6   v I.I.C.G.G.G.U.R.H.| f f : < H b.9.3.7.5.5.w.8.7.7.7.6.6.6.6.6.6.6.6.6.6.",
"5.6.6.6.6.6.6.6.7.6.6.6.6.6.7.6.7.7.w.,.a.m.8 o u o &  ._ _ _ X.B._ | N : . K r j.p.e.4.1.7.6.4.7.8.7.6.6.6.6.6.6.6.6.6.6.6.",
"6.6.6.6.6.6.7.7.6.6.6.6.6.6.6.7.4.e.3.7.8.9.k.L , 7   A ) B.B.Z.W ! f - . q < k.p.e.4.4.7.7.,.7.8.7.7.6.6.6.6.6.6.6.6.6.6.6.",
"5.6.6.6.6.6.6.7.6.6.6.6.6.5.5.5.6.5.7.1.7.w.:.l.J 7 : - c ` ( ( ~ - M . K 9 v.d.,.7.6.4.7.<.w.7.7.5.6.6.6.6.6.6.6.4.7.7.6.6.",
"5.7.6.6.6.6.6.6.6.6.6.6.6.6.5.5.5.5.5.6.6.6.7.p.l.q 7 9 ; n W ` j 1 2 < r z.a.2.7.6.6.7.6.6.3.7.7.5.6.6.6.6.6.6.6.7.7.6.6.6.",
"6.6.6.6.6.6.6.6.6.6.6.6.6.6.6.6.6.5.6.6.5.6.6.8.i.n.7 y u M s l k 9 q I y.p.r.2.5.6.6.6.6.6.7.6.6.6.6.6.6.6.6.6.6.6.6.6.6.6.",
"6.6.6.6.6.6.6.6.6.6.6.6.6.6.6.6.6.5.6.5.6.6.6.6.w.9.d.t , . > k $ 0 w n.0.w.8.5.5.5.6.6.6.6.7.6.6.6.6.6.6.6.6.6.6.6.6.6.6.6.",
"6.6.6.6.6.6.6.6.6.6.6.6.6.6.6.6.6.7.6.6.6.6.6.6.w.2.d.x.7 G : : F 4 c.9.e.6.1.6.5.5.6.6.6.6.6.6.6.6.6.6.6.6.6.6.6.6.6.6.6.6.",
"6.6.6.6.6.6.6.6.6.6.6.6.6.6.6.6.7.6.6.6.6.6.6.6.<.e.>.t.KXO O X o g.u.r.3.4.7.2.5.5.6.7.6.6.7.7.6.6.6.6.6.6.6.6.6.6.6.6.6.6."
};
