/* XPM */
static char *tn371[] = {
/* columns rows colors chars-per-pixel */
"64 64 90 1",
"  c #23230B",
". c #24280F",
"X c #2A230F",
"o c #252C13",
"O c #2C2610",
"+ c #2C2C15",
"@ c #2E2D18",
"# c #273118",
"$ c #2A3016",
"% c #2D321A",
"& c #332614",
"* c #322B16",
"= c #342E19",
"- c #382717",
"; c #392916",
": c #392D1A",
"> c #34331C",
", c #33381F",
"< c #3A321D",
"1 c #2F3B21",
"2 c #353620",
"3 c #353A22",
"4 c #3B3521",
"5 c #3B3A24",
"6 c #3D3E28",
"7 c #354126",
"8 c #354329",
"9 c #36492D",
"0 c #3A4026",
"q c #3D422A",
"w c #3D482D",
"e c #3C4B30",
"r c #3C5134",
"t c #402F1D",
"y c #41301E",
"u c #423422",
"i c #423A25",
"p c #433D29",
"a c #483725",
"s c #483926",
"d c #4A3C2A",
"f c #513E2D",
"g c #43422C",
"h c #42482E",
"j c #49422D",
"k c #454530",
"l c #444932",
"z c #4B4530",
"x c #4B4A33",
"c c #4C4E38",
"v c #455036",
"b c #435539",
"n c #44583C",
"m c #4A5136",
"M c #4C5139",
"N c #4E583D",
"B c #51412E",
"V c #524532",
"C c #524A35",
"Z c #544E38",
"A c #584735",
"S c #594836",
"D c #594D39",
"F c #53523B",
"G c #53583F",
"H c #5A523D",
"J c #61503E",
"K c #535640",
"L c #555941",
"P c #5C5540",
"I c #5A5B43",
"U c #5C5E48",
"Y c #526046",
"T c #5C6047",
"R c #5D6149",
"E c #615541",
"W c #615A45",
"Q c #645D48",
"! c #62624A",
"~ c #63684E",
"^ c #68634D",
"/ c #646650",
"( c #656950",
") c #6B6750",
"_ c #6B6B53",
"` c #6E7058",
"' c #70725C",
"] c #74785F",
"[ c #79735D",
"{ c #787A62",
/* pixels */
"*:;dsj<ZD<j<H0CCBys*B*iitjjjuju*y<ii<ijhi0sjijjiiiiDCsBsAsAjsCx=",
"*<:jgs<Cz<j<Z<CZyyt<si,j=jij<jst<<ii<0mChjZZiiji<jjCBysyByBjuAht",
";<yjdy<jg<gjj<jHtttusiiC=j<i<Asssjjjt,jmxiixjCjtjHBBAssyfyfy<CC<",
"<uujd<<CjjgV<,j^*tjtS*jx<jijjEBsjjCC,,jC0,pjjmj=i!FCDjsssysy<ZCi",
"y<iad<5Zjziz+<j_tyCuC*jCijijjJBst<jCi<xG$0HFiyij<WZjBsiystj<tZZi",
"a<y<j<sDig<j+<j_<jjjii<j=jijsAj<**0h,$hF,iGZ0,0i=HBjjiy<<ts==ZC<",
"a<<<B<sxi<<g><j!tijjiiij,jii<Bjy5,j0=,hm00jhjji<iCjjj<i<i<jttZC,",
"i*:;V<idi<<ii<gJ=<j*x*jh<jij<BBsi=,i5,m!,0hhh0j,5jCmi=i=iij<,Cmt",
"ittsjy<C4gZC<<jH==<=C5ij<<44sjB<=i<m$,j~hh000hj,*i0j*<*<j,0<ijij",
"CjijCi<jpjxj,<jxu,i,j,0ii44tyBBy<himi0h~hmxjihi*<jij*5,ixjjiij0j",
"s<*;y**<piii=5jgjxC*i$<,,<,**yi;=<$i$hG_0,,$$<ii,i,5$5$$,,<**,*$",
"SCssCCjZjiiiipjiH^(xmjhi,ijjsBBtsCjmj!_]mGjijCI!CCjjihi,,imhjZCH",
"ii=tsiijZCZCjjiiS^_mGCmj<0jjjBAsOiii,j05ixi,iiiixCCjhhh0$$0<0Cjj",
"yy<<siiBjjZZhii,,ZTxmhmj**<=tjSB*iy<*05jjFh<ii<<<,j,j00,00h,0Cji",
"<t=ij<<HjixCCxji0mQmHmGGjhiisSDAyit,*jxWxIj<jj<s=ix0h0hhhhh5jF0i",
"<*tjBijWFCZHHHmp<hGjmhxZZCBjjAAi*y<CijjmCTHjEZ<<*,xjj,00mxx0hGj0",
"*<<jj,jCCjC^jCSh0hImx,jjEZsH;Cii<yiJ<tj^ZjjCCCj<<5$jm,<himhjhG0,",
",,xjxjiWZjC!jjj$,0mhxjZCEZjW<xiitisj<t<HBCjBCji<,hjFC<jH5CmjjTh0",
"**x,iC<FIjFHIBjO,hIhxxHCjBBW4ZZZ$<jjj0CHxmFZmij0$xmPmtj^<mC00T0,",
",<xihFjHC<CCHjj*$hGixZWCCxCHyxxh,ixij0Cm<hhmh0,,=mCFj=C),ii,hThh",
"$<**<,<<<=i<j,i*iNWjjix,<*>,Oi0,00j50$<,$,,00,,$$0,5=*h^i,*,,h$0",
"FF0hjijjjijjBiiijH^xjij<xiimh(]_ihmji,,0hhhhhh00hHjxFF)[!HCCjm,h",
"FC0ijiiFCFCFHHBH<ijiCFWHSjxh0mTF00hGhhhTGIIGmmhh=i=5jjhB=,,,,G0j",
"Z0Ci0ji)CFjHDEjCit<tBCHCmjmh0xTmtiiHi0i!!!!Gmjh0,jijBji<<CB<,G0$",
"iimjZiFWCxHQCHjjiis*CiWCjhjh,hTmFCCPiijZCHFHIFjjj5ijZZjj<sC0xF00",
"hi<hCZCFZjFWBC<jtsssjjmj000h,hTjtusCujjCWHAChCmj5<0xZji<jC5j=!,$",
"hj<j0CCWFjFQCHis;AsEsCjC5,0h,h!0=ssCuCJECCHWEZji<0ijCCs<ij5j,)h$",
"jj0hijCWCjDWHHjjyDjWixxC,$jx,h!,jjBAyAHEHHHBCjjjisjjjCCs<<FjiITi",
"Z,*,jjmCCiHHHCjs<DDHBjmm5,0h,jI<ujjj=jjCPWHmjjjji0jijjja<tFj,Fm$",
"h<i$j,CZFjHFHCjjuAEFH0Fj5hp,,jZ**<sCijjhGW!WGmh5<jjCjja<,i4x*W0O",
"i0jii<iZC<HCHji<<jACFim0,x,$>ix<$55m,j0h!!Hh0hhj<ijjj<<<y4*i<H,<",
"Bh<i<,=ii$iiBi,*=u=<,=5$,m=O>ij0i$$j$,5h,hh0,55,$=,5y**i<yi<,5$,",
"ZJDVVp4656KR''KKzgxgxxF566K56QUcjhhmmjmhm`_FxjxFjhC4fpz6KppK6K3K",
"p624kdkKK6K6/K6e$0Gxh6ZZKfK6@K220jjhj0FGhWWFCCBj50xjKkKfpppk6K6e",
":664d26U66KoK6e6*<ZCCxPZd64K4^dk=j0j05mG0hCFZHC<>0mCPfKC=6d66U66",
"&fDz6:4K62K%K966<<ZVHDQSCdff4Qd6*hhCh,mFi0NHZHC$<iFxKdzd@6666Ul1",
"XVZp<46z66K6ee25=iHSSVWDSzPa:D4:*0jmmhmmhhCTFFC$50Fgz5p4426l6U6e",
"2kd26KczKk656626iyBdVAEzfdE4tDVa,j0xxjGG0jHGHHBigjGjCgzpp256eK6K",
"kkp6dkdkc662pK6pd<y<CPEdPCEf-c4puh0jhjGI,mCZHCji0jFjCjzp646K3K66",
"uudcc42K626@Ke65<<jijzQKZppx-Stf<hhhh0mN,hmmHmii><hgxip446661K66",
"2kccd66c6556p666i<mCjxFhk6262kp2,00ihm00,mmjZCijVckkkkd6<=2@6KK#",
"22662-22k4@5lK62>=<<,0h,k2#2-62:*0000,,,$NGj0,$i6pkpu2:24@@@226#",
"ckkkkpkkk5>6cKp4jggg0hmhkekc26kZG(^mw00ww~_NjishKUUKVkdVd6zKl66K",
"cu46kccK6pkxp6lKijzg0hhv8ekk@kVkiGTmwmNGhGImhZh,kkppp64466kKKeK6",
"k2-2pdkc6pxx050x=jCj0,0h662@-UD2*hh00mmNwmmhjChtk66kVcVc@2kk6KK3",
"c666k66c6656gi5<<AJZCjgx6c66-JS-0mmhhhwmhhGNhmj02udk64pD<6k66UK1",
"k22k666zk2=5jh<<;BAVCj<h-66f-pfd*50hhwhNhhmmi0j<6kkc6:6V22666Kl%",
"626ck6kKk526zzgy;BBjCz,5c6-kVJfd,0hmm77mGhmFhjj0u226p6dV666kkll3",
"K6-6kkkck8%6ce6222ckc6kkckkd-cu-2ekekrreeKkKcdk2622kk26ccu22kkk1",
"ku6k66c/6116kk222-6-k6cck6kfaKck218be86ceckcz22@kckck4p4k226kk6%",
"u66k226c616kck662-22eeke626f6c6628kck9eKcKKKKdk28ckecck2626kkcq6",
"kdu62222%%266k22@@26911#626k@k2-2kK6%262%2262@-2o@#2422&&@@@%161",
"f6u6kkkkckkKUKKVkcK/Ynee626f6ckkc/'Kkkccekckkkkckc6cc6kk66kkkkcb",
"utupp26c6266kkp22u6ck98bkkkc6ckc2ukSk2kKkkKckk6cl62kk@4626666k66",
"u-2au@2c666kk6u6222c8e6cKkfc-k6k2-uccuk/kkYc662kle6ek6kk2kkkkeek",
"kuukcu6K6666uu-622@kek2kck6f2d-kuaff666ckeUKk6#6lc66kkk2262%2kkk",
"uuuf-66ck6kkp-2V-u2kk266kVaf-uuk-ukVVVkkkkcc16k1kce662262uk66kc2",
"uu6k6626k-6kkku6uu-kk6kkdfua-aufyufVkkk6kece8kk21866d226-6662cc6",
"SVkuk66k6266kk2uuu2kk2kcdfuaufkVfVDAVkkce2866k8#kkkcc62626kkkKUb",
"J66@6-6662kc66-6uu2kc6kk6duuuVfVkfck66kck6222q6@eq6kk--6@2666KYk",
"c6u-626668k66626262cckk6kV6f6Vkkukkkk6kckek6kk616868k62c@26qkKKe",
"pu62k22262122k22@@-6r9r86k6d2666@6kck6621qeee8%@6k66662z266kkcck",
"@-@621#26112262@22@8r9e82622@2@2@@2622###216k1#@8kq22--22@22%6q1",
"6k6k686c6eck6k6kkk9bnrb98ccc8ckKkk666eke1e81kk6kkccekkckckk66kcq"
};
