/* XPM */
static char *tn374[] = {
/* columns rows colors chars-per-pixel */
"64 64 75 1",
"  c #4B341C",
". c #4C3921",
"X c #533D25",
"o c #553C28",
"O c #583F2B",
"+ c #4D4226",
"@ c #4D4629",
"# c #524026",
"$ c #544329",
"% c #54492D",
"& c #5A442C",
"* c #5A482E",
"= c #564D30",
"- c #594630",
"; c #5C4B33",
": c #5E4D39",
"> c #555636",
", c #5D5236",
"< c #5D5438",
"1 c #5C5A3B",
"2 c #5A613F",
"3 c #604631",
"4 c #624D35",
"5 c #634D39",
"6 c #684E3B",
"7 c #625036",
"8 c #64523B",
"9 c #635A3D",
"0 c #6A543C",
"q c #6A583E",
"w c #5D6341",
"e c #5D6945",
"r c #665440",
"t c #655D40",
"y c #6A5540",
"u c #6C5A42",
"i c #6D5C48",
"p c #705742",
"a c #725C44",
"s c #745D48",
"d c #785F4A",
"f c #646344",
"g c #626847",
"h c #646948",
"j c #6B6245",
"k c #6D6548",
"l c #6C694B",
"z c #716046",
"x c #74644A",
"c c #73694D",
"v c #79644C",
"b c #79684E",
"n c #756D50",
"m c #7D6451",
"M c #7C6B51",
"N c #767153",
"B c #7B7154",
"V c #7B7658",
"C c #7C795A",
"Z c #80654F",
"A c #816C53",
"S c #856C59",
"D c #817056",
"F c #847259",
"G c #80795C",
"H c #8A745C",
"J c #89785E",
"K c #90765F",
"L c #8C7B61",
"P c #937761",
"I c #927A62",
"U c #918066",
"Y c #948269",
"T c #9B826B",
"R c #9F8971",
/* pixels */
"aKpZqZZZZZZAAZAHAx97zzxDv70zaavv7z9707q00670a06006007qq7704q*q0q",
"dKZKKKKZKHHHFZZMYFzqbAxxzqaZvZHHqHDvq,qz080q660dZaaqqzaa004zZFvq",
"AKZ6qZHHKHHKJAZMFAjqcvxxDvvzqvHFqbq708006ava060dZxaauaZaZzzzDFAa",
"dKKdq0ADHAHFJDMDxADbAcAUUHv7#7bbqb77qqvq8vAd6000aqaaqzAvZAZ704zq",
"ZAz X#AJAbbbMMMDxADAZzxUDDx,#7bb;s:$  ;8aZZq6000auavqZAbxvM*$X70",
"aHMvHKKzAcvcbbbMxxjznxqcDDAj7zAxuMu777aavZa446dZqavvqxbaaxv070a7",
"ZKzqbJJxbczcnbcvbbxbDDADDADAxbbj9s;;uuu7Z00666pZqaxq0avaavbvaZa0",
"qYAMzFbzczxbBBccxADbbqqDbzxbxbDx;bxaaqaq00qZZ66p0qq04abaqMvv7xq0",
"7JbJqDcDxbccxnNnbZDZj9qbbcDFnzjx;sxquu0AmauuZp004avaqva3aaZqzzv*",
"7JFDbxMbjxckxnnxxvZbzqzcjzcnbtjc8nMuau7vsuy0p0004qqqqaq0v7zzv474",
"7bb,j*bMqzxxxcczxvvvzzzbbz97==9c;bs8975aapy000000070qqqqv0zaa*07",
"0cv$7%MDzxxkcccxvzzxvzxvFnf=+%9c;u:$*;8s0aaap000000qa0qa070XX&0*",
"7AAvvzFDzzxxxxkxvzvvvzzxvnnktjkk;b5%55av8padap00a0qaaqqaa0q#40x0",
"7FcZvAFDxzxxxxxxvvvvczzzcNnkhnnk7By8uqzu50aap06800qaaq7qZ7azZzZz",
"0AqvabZbMvxxxzxcvvbbxzzxbBx91nnf:F98x9a500y0006000qqaqqqa*qaz0q7",
"7bZZFAbqDnvccxxbzxxbxzzb<tf9fUVj,F55u7a5aq08600a00qqqqqaaaZqq0x7",
"aAxvbbbvccbckklkNVNxxcczxtz<cUjcqq9az8u77qzq07800a000aa400Zaa0a4",
"7DbbZbZavcxxkcllknckfkxxajxzjlkx;jaxa8q78qaj078uaq00aaaqaqvavav4",
"7Jc737xqvxzxklNNnnBBbcbFbzq<@=xj7zq7%$qq8qqq8790a040aqqa04a344a0",
"uFz*X&qxzzjhkcnnffjcczxbBvqq%%Df*z7% #q97qqqq77q044aq07a44a&XXaa",
"7xxbbzvbzzjkkxhfj9fkMcxMaxvUbcU9*uqq77y;89q0858q47qva00aq7a444aq",
"7kxJUAvvzzzxkkf9ckkbDDDbxxZFDMM7;u8uiuu5qqq0988840aaaqqaq0qqvaa&",
"qckvbzkzcxjkkhf19tfjxcxqAxvuux9q9q;577uy9qq885770770zvxqq0zqaqqX",
"7bvzxxbvbxzjfkf99fxkzcxaaaAavAqz47,ui7uqyqqq975:aq77ZKDaqaZ04&00",
"tzkzxbbDbkufkhhfhjjkzkxbvbxbabxv58rr88rrrrr8r8888iiiisiizaqqzju7",
",qbbxxxzxxkjklkwffjkkkzbvvvvbxvv8yr8579r888:8::857itiiuiaauqqqiu",
",tjq,7uzqkktflk2gfhllkxbbzx7u7xz888:-;5858:58:7:888r88rr7q97--8i",
"qt<$+*jb9jjtfkh2fgllckxcAza*7*ux88:;--:8r8rr8rr8rrrtr8r<977*@$;u",
"9tj9qjkxxf9fjffh22whjfjkbbkj7qtcrrr5::rrrrrrrrrrrrrrrr::rrr::::r",
"<qkxxvxjb99ff>>222wgjfjkjBvFkbzc8rrrr:rrr:::r:5rrrriirr:r<:::rr:",
"1tkkjzbbj99f9>>2gehhhfjk9kxnxcbD:5yrr5rr55r5:rr<rrrriiir:::r:rr:",
"7zbbzzxbqjzjfkcfhgfhftjkjqx9vkUU:5yiiyr6r55r5r8rr8<rrrr5rrrrr<rr",
"6p666666636pp333q*qq0a77304a0a&&Op343006044qaa04*txvcvabvv0z7zxb",
"sSZSSZZZZZZZZpZZZaZZZKHAZZ34ZZZa0TTISSPPTTTRRTUHFDzzADZAKHKTHUII",
"6p6pp666d6p633ppZqvaaZZZZvZ0ZKZZ6IKKZAKKFFABHAxzUDu9vbvZZzZaqzBb",
"pSp6p6pZ66366p3pZaaa0aZaaZZ0Z4aZ0Kd030ZZHHJUKFHDbFMcZbAHUAA4*=AF",
"6s3oO366dpppppZpavvZaZKZaZZ&&X0Z0KZqo0ZFAbbbbbBBuBDMZvvHKbv$$#zc",
"6S6666Z6Zp6603pZqa0a0aZaaZa333aZ4Hva0ZAxBbvxvvAbzczzxzavFDHbzzbk",
"3mp6ppp6ZZdp3p0ZaZaa00Z0aZZvZZaaqJxbBYHubbxvnNbcBDcxZZbAvvAAxbnk",
"6mspppZp36pZZp300a0a00ZaaZav0Z0Z4JDbxFDzxkzxBNnkzMbbbxvFvAxbqBnk",
"6dd6666SZ00pZpp04aZaaZ04aaaaaZa37HFMbbDbxbnccnNbcbDZa0avbbAtztxk",
"3dZZZs6ZZpp00pp040a00a00a0aaa303*bFFDzbnjxxkxnnxxcMczqavbxx<9>kn",
"3sp6y66pppp000000000000aZ0aa0334Xbbu,7vbjzkzkcxkxxxvzzzZzqq%=@9h",
"6s3oO36d00Zppp000000a00Z0443X303XBb,*qDbukkvvcccvzzxvvvvbzbfk<hl",
"4Z00pppZ0pZpZp00Z00aZ00aa00330a0&AAbZAHBzzxxcxxxczxvvzzzbbVxnfkl",
"3A00Zpdp30pZ0000000Za000Z00aZaZZ0vxAHbAFvzzxvkkxcvxcvzzvbxc9kflf",
"6A6306p600000000000aa000a40a0000qbavvabbbbvxxzzvxxvbvzzxcxc1lnCl",
"3H60q6p6Z000030p00000aaaaaZa0aa34UKvvAA7DbvcczxBxxvbvzzbqqz>kVC2",
"6aqdq0000qau8680Z0060dp4Z0dp00v3aUvaAbzavbcckkkhBDBxzbbzbz7zqBnk",
"000Zv7qa8qau880qq0000dZa40ZZZvv&*FbbFZvvbxxccknnkncxazxxqqjbzBMk",
"074a0*0q00aa088q00000aaa000344v79Dz777avxxzkklnNcbNBbxbFbzz7=7zz",
"7a4&&*0780q0080060000000033 &&avaFa*$$qxxzjkknlnjfjcxzvAFvv***zk",
"0v0447a700qq088060aaay0y030aZ0aZ7bxbbzbzzjzkklhjjftkMcxbvvFvDcAz",
"4q7vv0q000q08870480aayaa00aZA0qZ7axUFAAjzxjkkjj1cjxcFDDZaaAFHDM7",
"747aa7q7qqq0007786800yaa0aa3a40Z9ajbxzbzcxjzkhj19tjjxcvuvvvvqxz7",
"4a077qv4qqq00644ap000aad4ZZ3040vqjzbxqDxbxjjjjf21fxjxxxuxvabqbxz",
"0887480q00080888rypi6yyiaiyiaiy;qztbznbDcztfkkkhhjhlkzxbvvuAuzjA",
"40qaq087777677846ryy0yyisayyisai,qnAAxxzxcxjkhh9jfjkkjxvbaabFAxu",
"000;44488888877466rr66yiiy6555yu99x,q*jxtck9flh1gghlkkccbjx7q*zb",
"q773*37q08800060r6yry655y65-&-:8q97$$%qb9jj9fkhwwghllkcbbvj*$#un",
"47qa0q00068880605rriyr5:rrr::;:r9q9j9jtxxttjkw2h22eghfjhDc1jtcu<",
"70q0q00q78787707::riiyrr:5rr87r87j9NzAzxct1jw>2ew22gfffjjcjBcGzq",
"0774760q77777770:rrriirr:rrr089q9tjxjxxbjt9ff>22heehgwfl9kncfjkn",
"5qaaqq7466070000rrrrrrrrrrrrqq7<79nxb9xx9jjjfkheh22egwfhjjcqcjct"
};
