/* XPM */
static char *tn372[] = {
/* columns rows colors chars-per-pixel */
"64 64 59 1",
"  c #2D2A26",
". c #2E2B29",
"X c #302720",
"o c #342B24",
"O c #342D29",
"+ c #392E26",
"@ c #392E2A",
"# c #363026",
"$ c #35312D",
"% c #393026",
"& c #3B332B",
"* c #3D382E",
"= c #353331",
"- c #3B3632",
"; c #3C3934",
": c #3D3C39",
"> c #3B3F40",
", c #3E403C",
"< c #3C4141",
"1 c #42352D",
"2 c #42382E",
"3 c #48372E",
"4 c #4B3A2E",
"5 c #413630",
"6 c #443B34",
"7 c #433D39",
"8 c #493D33",
"9 c #493E39",
"0 c #503F35",
"q c #403E40",
"w c #444036",
"e c #44413C",
"r c #4A4036",
"t c #4A423B",
"y c #4D493E",
"u c #514036",
"i c #50433C",
"p c #524A3F",
"a c #454241",
"s c #4A4541",
"d c #484649",
"f c #4D4844",
"g c #4D4C4A",
"h c #4F504B",
"j c #534641",
"k c #524A43",
"l c #524D49",
"z c #5A4C45",
"x c #584F4A",
"c c #545047",
"v c #55504C",
"b c #59524B",
"n c #545451",
"m c #595552",
"M c #5E5955",
"N c #615A55",
"B c #615E59",
"V c #685D57",
"C c #67625E",
/* pixels */
"68j5t:y:::,aaaqqs:O=7777;O6$-&ss=:= .=a-=-==9;-e:=::a777s=262&68",
"0zVxbfblfghhlnlllsqaffsss-76t7ke=nnd<dmdxxllmlsffa:::77sbjkbjkp9",
"6ib9t6se,,taqsqqa;;esq6;l7t6t7k7=nmgadmvnnnlml7sld:>;;9attte;8r1",
"jjz2:$yt,w,eqq77sssflsa7lee@&&s7=gd:.=fa7s7eft67eq:aae77xs8#o*r3",
"866X@O7-eeea9797665998:8lts#$#ss=ga=.;fe7e;7ft9y77asffssNby&o6jy",
"s0z9xlby::777777ssskysykttb98-ys=gs::fmate7eystksa7esaeax9t:&696",
"16j6ktf:ay999qq0658e9-6eeebta7le ffa7lme7e79st6es7777777lets9ey9",
"89z6s7s7w:7696999tykt8rte8k-7els ff:-abe7e7tkt;89:7ese77f;:t8;9t",
"-9x6y6ww,wwrtt99pir42*6:77et779s7nlgffMl89e9y99tlllse5;ee9;;-;77",
"@9k-y*yy66w66888urr42226t9897;;q.sffe7f7;78ttrr8it9t8-;:se77777e",
"@9tO&#;w*w268888r44432668;--$O=7Oss;OOst668err66r6:te869;-=$==--",
"@99&#&*ww2w480uu44rr6436e8-&O=-;-fs;-;bb6:8trrrrr68tte9ese9:;;:7",
"@9q9rkfcwrw880uu44u48886kie657qa asfkkbs88rrrrr8r8wty99ellssqaaq",
"@990tcyyw288800844ur4488iye69qss 777tfb96:6:6868r88t96997q:;;::;",
"@9576y**646884444ru42888666-79q7=s75;7kt68:86666w8wr656977q7:aqa",
"-s59rbrwrr8888444448238656659qq7-kkk99968888r88w989t657s-;;:::qa",
"@969bbi8999977tebly:www89567qq099999jq0099ttywwwbe;6w66t:;=7qdq:",
"&9w6ti8899t99,,effe,ww78996559qq6yy8988q999,w::,t,:yyr28tr77qqqq",
"#86%@@2997977,e,,eee:6685965-=:q@ti@@1599797,,,,::wyy22r8e9;==>d",
"#t6*@@1976767,,w:,,ate:68888557qot0+o@53768weteewwwrr2rp8977--:>",
"&t99i9899667ww,,::,tyst6999jzqq7#pk*59986667ete:wwww28rp00qqqqqq",
"#r98i9689757w:;;,,:efkt678qqjqq5&yt60q939756:8:$;6wrrrru00uqjqq0",
"o69686539666ee:=:,w,et86385999q9%2r386369775::;$*;2wru4204880q03",
"*r066669t86:,,;$:::::;;899q575qj&w6w866s9957,,:;;**22r4200833366",
"%wrr90j00977:te:e,,:668rr9969qqm6wr668yzj97-;7:;ww62224r40889886",
"%wr2559q9975,ta,:,:::::68t79qqqz%*wr6389996577,;::66r88800434899",
"o*6&+@39565;6w::::::87:866-&5--d#*22&15866-677:;;;:6w6864411+169",
"%*2&@@58565;;:;:;:,wewr899&@@@:z**&%@@59765;7:::=,:,wr860851+115",
"&w2w2w8896677;::=:,,6w8:i97577qx-25@@5609t97::,,,=,,e798j0933568",
"%&22r9955565-=-;=;;;;*6;6999f9ql&&669899787-;=;,:,,,:77699999998",
"%%2w68667569;==:,,,,;6681879fqjv&6899966656;;*=:<>,:;7666658977:",
"*,rw8ts99q9q779a<a,:w,tr69769qzN:6956668&;8,ew,,<>>>:;7767995955",
"=,=. -a-=-$=7;-e:=:7a777y-&62&67#e= .=a--$-O7$-7;::::::=e**6&&*6",
"=hggadmfxnlxnlsfga::7;7sbkjbjpkt;ghdadmfnlmlCmMBnghghhhccfcncypy",
"=nmhdamllmlmml9sgd::;;7sy9te688&=nmhadmlllxfmstsg<><w,,sytsy6wr*",
"=hd:.=fs7s77ft;9a::eaa77xs8#O&t6$gd:.=faaas7f;--d:=,e::scsw#X*t2",
"=g<=O-fq7777ky9f77qfffsaNbt-o8kt=ga=.;ge9:t6xtsls,egvstgmht&o*ky",
"=dd::fmaae77sseksa7ass7sxte6&6t8$gd:7fme::e;kety:::sdt,efyt:#6rw",
".fge7fmt7e79st6es7777;77l7tye9t9 fgq7kmetakeb79ee,eette7lttswett",
" gf:;sl,7e9eyt68e777sa77f;6t9:7a lf;;an78:t:b98rtyt7,ee:s::t86,t",
"7nxfffMn6:9ty9twlkkse&;e777=;;777nlffkMl:9tty99exlkj955qe9;;;;77",
" sffa7s9668tt988s9tt8;;9f777779q sffe:f76689rtr899s97557se777777",
"Osa;@Oss666e8rr6966tt::9;;==O==-Oss;O$st;6:trr86986997796;=O-=-;",
"-fs;=;bx:88t9trrt68tye9ts797;777-fs;&;bb688trrrr9699jq90s977-;77",
"oesfykms:88wrrr8t88t9tetlfsaqaaaOaafkkmj888rrrrw989iq00qxlqqqqqq",
" 77esjxe66886866ww8t98:8a77;:-:; 777ysl96:6886669889q899q99::579",
"=s9--6jt88662866r88r626t77q7:qae=s76-6k9666:6686988085909997qqqq",
"&llyt9y6e8w8rwww8ere66:t;-;;7:q7=lkjt9s69988rw8889t9557q-5:599qq",
"7tetks7q999qqsqene,:w,:y6--6qsq7et9tzq9079aae,,,na;7e;7y6&-7ssq;",
";st,97699qq7q9::e:,eyw6w9877779q:ss79q9qq7e7e,,,a:,as76:t96677qq",
"#yt&@&599q9qe,::,,,ft:289t9-@-;aOei&+@5q9997e:,,,,ess8289e9;@@6q",
"Oty#o@569979etaa,,ww,6rp6896--;7oyq@o153977eetew,,wtw6rp8896--79",
"#pp22r8685:w,,e,rw:w68tp8ii9i999%pp230868579wee,,www6wup00iq99q9",
"&tr4rr83986687;&,:wrrrru880ijj95&tp29983985666;*;:wrrwrr9000jj96",
"%wr2r4380866ww*&*;6wrr4243888961%442903398656w;#*;6wrr4244488865",
"%4r4r41u9833ww;*2**22r4200816168%w4r93300866ww,****22rr209865366",
"228833qzj065666-www22wrr848089662rru44ipj085676*www6268834809986",
"%18443000866996;2,*ww44r44846900%2ur42ru0986976;*,22648800883686",
"%*1111539556ww;**,*22w42831@117q%&221124565677;-*,;wr288841@158q",
"&11++@398656:;:-;*w,rw4r095@@@55*&&%o+28865557;-;*wwrr88881@@558",
"***%@569q9766:::=,,,8666j9976;;;625&+#69q997;,,,;;,,78:6zq9655--",
"%*66686907;;-;;;;;;,:6659999797;$;666887976;=;==;:;*;66299997:7:",
"*;weq99977:;=:;=,,:::6765767777,--79iq7767;:;=,,,,,;;76835089qqq",
"w,ew99qq57e,,,,<daw,:7997799aeat;;6790qq;w,e,,,,ae,,7799jqqqq7q5"
};
