/* XPM */
static char *tn373[] = {
/* columns rows colors chars-per-pixel */
"64 64 79 1",
"  c #2B2722",
". c #2C2925",
"X c #2D2C2B",
"o c #2D2D32",
"O c #2E3235",
"+ c #332B24",
"@ c #332D2B",
"# c #392D25",
"$ c #382E29",
"% c #312F30",
"& c #34312D",
"* c #3B3126",
"= c #3A332C",
"- c #3C382F",
"; c #353433",
": c #353538",
"> c #363835",
", c #35393B",
"< c #3B3532",
"1 c #393638",
"2 c #3C3935",
"3 c #3C3B3A",
"4 c #343C42",
"5 c #3C3E41",
"6 c #3E403D",
"7 c #3E4143",
"8 c #3C4349",
"9 c #42352D",
"0 c #43382E",
"q c #4D372C",
"w c #4A392D",
"e c #413631",
"r c #433A34",
"t c #423D3A",
"y c #493C33",
"u c #483E39",
"i c #51362A",
"p c #50382C",
"a c #513C32",
"s c #423E41",
"d c #454136",
"f c #44403D",
"g c #494036",
"h c #49413C",
"j c #524235",
"k c #50443C",
"l c #53483E",
"z c #594B3E",
"x c #434242",
"c c #444549",
"v c #434844",
"b c #45494D",
"n c #494542",
"m c #49464A",
"M c #4B4845",
"N c #4B4B4A",
"B c #4C4D50",
"V c #4F504A",
"C c #4F5155",
"Z c #4B5258",
"A c #504740",
"S c #514A45",
"D c #514D49",
"F c #594B41",
"G c #54504D",
"H c #5A534E",
"J c #535252",
"K c #555558",
"L c #57585A",
"P c #595653",
"I c #5C5955",
"U c #5A5A5B",
"Y c #565D63",
"T c #585D61",
"R c #5C6165",
"E c #615B56",
"W c #65615E",
"Q c #676360",
"! c #686866",
/* pixels */
"wyyw0yhdnxxx777cc5>>3tu2he22&2fx:cs,1rn;2<3->>,6>2363><2<2<<2t2=",
"jzzkggh2nnMNmc7,Nb33tfu22-tufxCNsCmsssmr3t36>63666fxf33t22y2uhg2",
"yzzgyyhhnxNGJVc3Ncf33dtth2ut<dNNcJc,13n2tftt66667f6ff33d2tfttyyt",
"wgy*+-hMhtxNJKNbcf63tfhhHh2& &375m1:@@r$uttt62tdf6f633tfuff2==22",
"ygr#+=yhh33fmCGVxxxfhMMSSh2=.&fx3v>&@@t=yyuueutsxMmvhxffhft&+$-2",
"rghyygMhfht3fMNNxfxfhhhhShMn3fc7>6>>;=y2errreertMNNxf6tttht&=-2y",
"ruhhMDDnhftttfxnfff32tythhDDxfx3>6>23=d-eraererufMMf6ff3fft22yyt",
"nhu2yngydffftdffhffdyydhyrfhtfc667263=y9qeeaeeeu3xxMxNMxffdthh2=",
"<tnxhxdttutduthtMhhy20-0rtfff755>6V623=yy000ryyt2cVNNVnhSfG2S=2+",
"3xnfttfhtttdhthdhhhy0000yyhh33f76vV6tdrd0y00wrre=3ffxxf3GnG3D0g=",
"3ff2;2ttydyyyhyyhdyryy0yyt2=@;3f>v622y2eree0rr<<2333fxftSfS<h=d-",
"5f32;<tttttyyygdydyyy0yyyr2&@X,7X66><=2errrr22<=f336xMxfn2u@u=r<",
"7ccf66hfttyyyygyyyy0yyyydht2<>5cX855t;MMyudd333>663xMxd2fr2=u-hd",
"5xmccfd6tdyyydgyyyyyw0yyyyy633xxObsxs3DDffh663>6f3fMmx3<u222tthu",
">7cv7fttutygygayywwwywwyy0-3t35toN:1s1Dhhff636>6f6ccmfr3322trr2-",
">fcxf6htttygygpgydggygy0yr-2txxx;bo1htD1fff6336633fhxr3u2y2uur-=",
"2ffh3hd3fytdhgyyht2yd02gyh2=hf2h@sest1ntsust3123thr<eysyy9yyruu@",
"yhhy2yffnhthhyyhhtthhtgh-22yhy2M<s1ttemsssstr211tr2eeyaywyyye3te",
"2y2&@=ttMfttduhhdhdhdthhDy2r&+2h%t;<;;xtusstt13re<erqewye9ye$$ee",
"2tt&@&2tnfftfffxtyhtythhEhug&+yx%e;;=%s3usstt3131=<yr9eyw9e9$=tt",
"3nMf32tftttdtxt32tfftdfhDtMIDMMd%t1t31httshxt333<=<yre9yrerresFs",
"tmGNnfffttt33f3<3ufffnMxDnMDDMht@t1t3<xtstsxf33r3;=2ryyyweqrssSy",
"7mJVMxttnMx75f3>tdutnMMhDGn32r2t@1%13>623fxff33321<etsare9r3ersr",
"7CUKNxhxJHNf37513tt2hSntuPMrtt2fX31t3>f33txxf333rt<<uAAerey2=2ss",
"777NJIPMIDxxx3,:23tttfNPx32tdt3d;<33>2>>3>23f7336ttttdyd-err2ttf",
"38bGJDMhDDMhxb7,33t23thMfufxf63f>33<;<33<;;332>33636rtrrry22<23f",
"777322yhthMt3b8:333t666fbf3<%;6G;>>;X;;>>>;>3>>2232222rrr2=&%&36",
"75>&+=2g0yt<3f5:333fxxffMf>&X&xG%;>XX@;>2;;;>3333232222r2e=&X&33",
",,3ffhy0y9-tt2>5,333f663636f7333>33;%;33>>;;>>33>>33226-ddt-3366",
",33thggwg**r3&>833333333xffxf3<3>362;>33;;&X;>2>6>>222--2-666666",
"xx3220gjq990<;>3,3f3336xMvxf63MJ;>63>2>>;>;X;>3>6>6>3222=-6-2667",
"3xNMh0wy900dd6333tf33fmJ7mJIJCU!;3xx332>>>2;;33>>>>22-----22>667",
">6dfh2=<--22<>:12<;;3mm555cssss;%Mt&=>< ;<<2232@1stttuuyy2hd>6hV",
"VNVVNvxm6266333ruurtnmBcBZKKKKKJ2WWPGNPJDPIIIIGNssstruuyygllhfVV",
"66232>1r>22<><1tyyrrummn5ssssxmA2JDMMNHMnMMxfft<mmssrtudhdhh66fV",
"t3>&@&;t222>;-1errweryustst2$;3y2M<@2tn2DSMftxnfmssstthylt0& X66",
"tt2&@%et6tt21etuyawwryuAnhu2$#9y=Df<=&fnxhf2rff3ssf7fhthSht=  6d",
"22-&@;e1r3t2settawayqruAuree9#9e@xttffxttxMMNNMt557f7tftf3df66d6",
"tuu2esutr222eeeeywwyreuSAAuuyyas<n2fGGDt<2ttfnf3s3773fdft2hv6dd6",
"=rrreee=rruyrrstrryttrsDDsussrry.ft3t2nxnnxtfMMMsf33366xnthx3tfd",
"esetueesreeerrtee1tmDmmsBmBmrt3$<t2fftx3fftttxMDMMnfd3333fft22ux",
"qseeu=rayreeeree115ccmbxccBBsss= 3fMn2httffffxMSMVSMft3ff32;@;rh",
"$ueee+et2ryreeee3155cbbs55cxt1t=Xtt2@.fn3ttfffxxhkSA3<1t632&@&<f",
"+ye=e$er23ydreee31ssccc8s4:%o=r1@f3<X@fxrtfxtttr0yggytux33tt2-2t",
"+d02eeuu0dtre---r5xmbb55s31;$2ur fMNnfn2txnnhxtuwqyaAAmhddfftrd6",
"+h--rehu-rrd2e0rttnAmx51r1tueyy9.utMMDGttffxttthypqaaaurxfd2-ddd",
"+d&*r-t=d---0r2rrtusmsr11eyywwq9=nt2rnJnMMnft3tupiiqwry2hd---ddd",
"-d--r-t&tr--2r22yryuuuyryrye9qqq<MnhxnDuIIGSnffhjaaqwyyh23-ddddd",
".22yues<eeet1<e3yyeeyyr0eyyryy9#<hussrnyuPHnrAseyyyy0ryyy*gryM-h",
"&d2ueeue1eteeeeery00wrryyyw00y0$<sysyyAuyFFuyssuuhhhyyryhyhtt33f",
"=r<<@@teeette<ee00099ery0-=#*0-=ese1=$reuusutssstxhhfutydhM2f%c3",
"<t2e%@te1eetee1t9-0-e9ry99*=#9--2nee$@e9yrrasuus,33fftdf2fn3CoZ8",
"1stte1ut<1et1<<<$=rrr-2yer2yytyu=truyrsusrersuts355f5fxMfmCbR8R8",
"rntst<se<t111<<<$9errrr20-yhg22u=sussrauayrrttt15s57fcMNNVLbT8Z4",
"<t<ee1s%1e1e<<<;2e-<rr2ye-ruy22uesusyer=uytrte33337f6fxnMmIbbb87",
"ts%<1ts<1tse<<;<u2-=eruur2ruu2yh=stuuysyeuureur1233tt3ttdhPv6C88",
"rss1;<3t;11ttt1<ut322rr12tthfu222tsuusayuaretssettt2ryygthtGGPxN",
"1tt<=%21te5e;%%%222222rrtt3ttfhx$3seryuurrrerus1rryyryygygggDMMP",
"155;%%:>:;;;%:;<22222222t22<<3tt@<re$%rueerrtuse20dw0ggwyyg=l2SI",
"13311:<1:%%;;11t3t2222<;dt2;<<23%<t<$$eyereruste-00wgy0yywy&t3hG",
"3ss31s115e1;%:%;33t33<><f3f3333t<3ee$erryeeee21r22ryyyyyyg<ttx36",
"1s531ss1;;;o%;;1;;333333>333stf3<1teruuyreeee;21tttututtyM2xfN>>",
";3331ss1ooo;:11s::3,333,;:>>3,31%esutuyyreerr<2t733336tt3xf78c44",
"%1111s51e11;;;1;;>133,:>>31,115soeAsrerereyusr3f77753333>7b;8,84"
};
